; Generated with 3DWriter 1.6.4.0
; 
; Font: cursive
; FontScale: 6.66mm (0.18)
; Bed: 220 x 220
; Offset: 15 x 10
; Draw mode: Pen
; Pen Up: 4
; Pen Down: 0.2
; Travel speed: 120
; Draw speed: 70
; Z speed: 120
; Line Spacing: 0
; Letter spacing: 0
; Home: XYZ
; Dry run: OFF
; Render count: 7
; Decimal: .
; Text input...
; ----
;	Dear Little Salted Fish.
;	
;	  In this season of blooming flowers and warm sunshine. the May sun casts a 
;	gentle glow on your cheeks. and I can't help but think of the union of poetry
;	 and the distant horizon. Unable to resist. I pick up my pen. carrying my 
;	endless fondness for you. and write this romantic letter. At this moment. I want 
;	to paint the beautiful scenery for you. so you can feel my emotions and the 
;	tenderness I have for you.
;	
;	  In my dreams. I always imagine our hearts as solid as steel. building a love 
;	castle that belongs to us. I want to spend countless 520s with you. allowing 
;	our love to be like the most precise machinery. perfectly in sync.
;	
;	  As the most handsome guy. my romance is naturally unique. In this world. I 
;	am willing to dispel all darkness for you. let you feel the majestic power. and 
;	give you endless security. For you. I can create a sturdy fortress to protect you. 
;	allowing you to rely on my broad shoulders with peace of mind.
;	
;	  In this letter. I use confident brushstrokes to express my admiration for you. 
;	In this endless courage. I weave passion into verses. letting them dance on the 
;	paper. I want to tell you in the gentlest way that you are the ray of sunshine 
;	and the touch of color in my heart.
;	
;	  The May breeze gently blows. carrying my thoughts of you. With full 
;	confidence. I look forward to the day when we can appreciate the poetic 
;	and picturesque scenery together. allowing our love to shine brilliantly in the 
;	sunlight and breeze.
;	
;	  Wishing you a happy 520!
;	
;	                                               The Most Handsome Guy
; ---- 
G28 X Y Z F7200
G21
G0 Z4 F7200
G0 Z4 F7200
G0 X17.52 Y209.28 F7200
G0 Z0.2 F7200
G1 X17.16 Y209.1 F4200
G1 X17.16 Y209.1 F7200
G1 X16.98 Y208.74 F4200
G1 X16.98 Y208.74 F4200
G1 X16.8 Y208.02 F4200
G1 X16.8 Y208.02 F4200
G1 X16.62 Y206.94 F4200
G1 X16.62 Y206.94 F4200
G1 X16.44 Y206.4 F4200
G1 X16.44 Y206.4 F4200
G1 X16.26 Y206.04 F4200
G1 X16.26 Y206.04 F4200
G1 X15.9 Y205.68 F4200
G1 X15.9 Y205.68 F4200
G1 X15.54 Y205.5 F4200
G1 X15.54 Y205.5 F4200
G1 X15.18 Y205.5 F4200
G1 X15.18 Y205.5 F4200
G1 X15 Y205.68 F4200
G1 X15 Y205.68 F4200
G1 X15 Y206.04 F4200
G1 X15 Y206.04 F4200
G1 X15.18 Y206.22 F4200
G1 X15.18 Y206.22 F4200
G1 X15.54 Y206.22 F4200
G1 X15.54 Y206.22 F4200
G1 X15.9 Y206.04 F4200
G1 X15.9 Y206.04 F4200
G1 X16.26 Y205.68 F4200
G1 X16.26 Y205.68 F4200
G1 X16.8 Y205.5 F4200
G1 X16.8 Y205.5 F4200
G1 X17.34 Y205.5 F4200
G1 X17.34 Y205.5 F4200
G1 X17.88 Y205.68 F4200
G1 X17.88 Y205.68 F4200
G1 X18.24 Y206.04 F4200
G1 X18.24 Y206.04 F4200
G1 X18.6 Y206.76 F4200
G1 X18.6 Y206.76 F4200
G1 X18.78 Y207.66 F4200
G1 X18.78 Y207.66 F4200
G1 X18.78 Y208.38 F4200
G1 X18.78 Y208.38 F4200
G1 X18.6 Y208.92 F4200
G1 X18.6 Y208.92 F4200
G1 X18.42 Y209.1 F4200
G1 X18.42 Y209.1 F4200
G1 X18.06 Y209.28 F4200
G1 X18.06 Y209.28 F4200
G1 X17.52 Y209.28 F4200
G1 X17.52 Y209.28 F4200
G1 X17.16 Y208.92 F4200
G1 X17.16 Y208.92 F4200
G1 X17.16 Y208.56 F4200
G1 X17.16 Y208.56 F4200
G1 X17.34 Y208.02 F4200
G1 X17.34 Y208.02 F4200
G1 X17.7 Y207.48 F4200
G1 X17.7 Y207.48 F4200
G1 X18.06 Y207.12 F4200
G1 X18.06 Y207.12 F4200
G1 X18.6 Y206.76 F4200
G1 X18.6 Y206.76 F4200
G1 X18.96 Y206.58 F4200
G0 Z4 F7200
G0 X19.14 Y205.86 F7200
G0 Z0.2 F7200
G1 X19.5 Y206.04 F4200
G1 X19.5 Y206.04 F4200
G1 X19.68 Y206.22 F4200
G1 X19.68 Y206.22 F4200
G1 X19.86 Y206.58 F4200
G1 X19.86 Y206.58 F4200
G1 X19.86 Y206.94 F4200
G1 X19.86 Y206.94 F4200
G1 X19.68 Y207.12 F4200
G1 X19.68 Y207.12 F4200
G1 X19.5 Y207.12 F4200
G1 X19.5 Y207.12 F4200
G1 X19.14 Y206.94 F4200
G1 X19.14 Y206.94 F4200
G1 X18.96 Y206.58 F4200
G1 X18.96 Y206.58 F4200
G1 X18.96 Y206.04 F4200
G1 X18.96 Y206.04 F4200
G1 X19.14 Y205.68 F4200
G1 X19.14 Y205.68 F4200
G1 X19.5 Y205.5 F4200
G1 X19.5 Y205.5 F4200
G1 X19.86 Y205.5 F4200
G1 X19.86 Y205.5 F4200
G1 X20.22 Y205.68 F4200
G1 X20.22 Y205.68 F4200
G1 X20.4 Y205.86 F4200
G1 X20.4 Y205.86 F4200
G1 X20.76 Y206.4 F4200
G0 Z4 F7200
G0 X22.38 Y206.58 F7200
G0 Z0.2 F7200
G1 X22.2 Y206.94 F4200
G1 X22.2 Y206.94 F4200
G1 X21.84 Y207.12 F4200
G1 X21.84 Y207.12 F4200
G1 X21.48 Y207.12 F4200
G1 X21.48 Y207.12 F4200
G1 X21.12 Y206.94 F4200
G1 X21.12 Y206.94 F4200
G1 X20.94 Y206.76 F4200
G1 X20.94 Y206.76 F4200
G1 X20.76 Y206.4 F4200
G1 X20.76 Y206.4 F4200
G1 X20.76 Y206.04 F4200
G1 X20.76 Y206.04 F4200
G1 X20.94 Y205.68 F4200
G1 X20.94 Y205.68 F4200
G1 X21.3 Y205.5 F4200
G1 X21.3 Y205.5 F4200
G1 X21.66 Y205.5 F4200
G1 X21.66 Y205.5 F4200
G1 X22.02 Y205.68 F4200
G1 X22.02 Y205.68 F4200
G1 X22.2 Y206.04 F4200
G1 X22.2 Y206.04 F4200
G1 X22.56 Y207.12 F4200
G1 X22.56 Y207.12 F4200
G1 X22.38 Y206.22 F4200
G1 X22.38 Y206.22 F4200
G1 X22.38 Y205.68 F4200
G1 X22.38 Y205.68 F4200
G1 X22.56 Y205.5 F4200
G1 X22.56 Y205.5 F4200
G1 X22.74 Y205.5 F4200
G1 X22.74 Y205.5 F4200
G1 X23.1 Y205.68 F4200
G1 X23.1 Y205.68 F4200
G1 X23.28 Y205.86 F4200
G1 X23.28 Y205.86 F4200
G1 X23.64 Y206.4 F4200
G1 X23.64 Y206.4 F4200
G1 X24 Y206.94 F4200
G1 X24 Y206.94 F4200
G1 X24.18 Y207.3 F4200
G1 X24.18 Y207.3 F4200
G1 X24.18 Y206.94 F4200
G1 X24.18 Y206.94 F4200
G1 X24.72 Y206.94 F4200
G1 X24.72 Y206.94 F4200
G1 X24.9 Y206.76 F4200
G1 X24.9 Y206.76 F4200
G1 X24.9 Y206.4 F4200
G1 X24.9 Y206.4 F4200
G1 X24.72 Y205.86 F4200
G1 X24.72 Y205.86 F4200
G1 X24.72 Y205.68 F4200
G1 X24.72 Y205.68 F4200
G1 X24.9 Y205.5 F4200
G1 X24.9 Y205.5 F4200
G1 X25.08 Y205.5 F4200
G1 X25.08 Y205.5 F4200
G1 X25.44 Y205.68 F4200
G1 X25.44 Y205.68 F4200
G1 X25.62 Y205.86 F4200
G1 X25.62 Y205.86 F4200
G1 X25.98 Y206.4 F4200
G0 Z4 F7200
G0 X29.58 Y207.12 F7200
G0 Z0.2 F7200
G1 X29.94 Y207.12 F4200
G1 X29.94 Y207.12 F4200
G1 X30.66 Y207.3 F4200
G1 X30.66 Y207.3 F4200
G1 X31.2 Y207.66 F4200
G1 X31.2 Y207.66 F4200
G1 X31.56 Y208.02 F4200
G1 X31.56 Y208.02 F4200
G1 X31.74 Y208.38 F4200
G1 X31.74 Y208.38 F4200
G1 X31.74 Y208.92 F4200
G1 X31.74 Y208.92 F4200
G1 X31.56 Y209.28 F4200
G1 X31.56 Y209.28 F4200
G1 X31.2 Y209.28 F4200
G1 X31.2 Y209.28 F4200
G1 X31.02 Y209.1 F4200
G1 X31.02 Y209.1 F4200
G1 X30.84 Y208.74 F4200
G1 X30.84 Y208.74 F4200
G1 X30.66 Y207.84 F4200
G1 X30.66 Y207.84 F4200
G1 X30.48 Y206.94 F4200
G1 X30.48 Y206.94 F4200
G1 X30.3 Y206.4 F4200
G1 X30.3 Y206.4 F4200
G1 X30.12 Y206.04 F4200
G1 X30.12 Y206.04 F4200
G1 X29.76 Y205.68 F4200
G1 X29.76 Y205.68 F4200
G1 X29.4 Y205.5 F4200
G1 X29.4 Y205.5 F4200
G1 X29.04 Y205.5 F4200
G1 X29.04 Y205.5 F4200
G1 X28.86 Y205.68 F4200
G1 X28.86 Y205.68 F4200
G1 X28.86 Y206.04 F4200
G1 X28.86 Y206.04 F4200
G1 X29.04 Y206.22 F4200
G1 X29.04 Y206.22 F4200
G1 X29.4 Y206.22 F4200
G1 X29.4 Y206.22 F4200
G1 X29.76 Y206.04 F4200
G1 X29.76 Y206.04 F4200
G1 X30.3 Y205.68 F4200
G1 X30.3 Y205.68 F4200
G1 X30.84 Y205.5 F4200
G1 X30.84 Y205.5 F4200
G1 X31.2 Y205.5 F4200
G1 X31.2 Y205.5 F4200
G1 X31.74 Y205.68 F4200
G1 X31.74 Y205.68 F4200
G1 X32.1 Y206.04 F4200
G0 Z4 F7200
G0 X32.64 Y208.02 F7200
G0 Z0.2 F7200
G1 X32.64 Y207.84 F4200
G1 X32.64 Y207.84 F4200
G1 X32.82 Y207.84 F4200
G1 X32.82 Y207.84 F4200
G1 X32.82 Y208.02 F4200
G1 X32.82 Y208.02 F4200
G1 X32.64 Y208.02 F4200
G0 Z4 F7200
G0 X32.1 Y206.4 F7200
G0 Z0.2 F7200
G1 X32.46 Y207.12 F4200
G1 X32.46 Y207.12 F4200
G1 X32.1 Y206.04 F4200
G1 X32.1 Y206.04 F4200
G1 X32.1 Y205.68 F4200
G1 X32.1 Y205.68 F4200
G1 X32.28 Y205.5 F4200
G1 X32.28 Y205.5 F4200
G1 X32.46 Y205.5 F4200
G1 X32.46 Y205.5 F4200
G1 X32.82 Y205.68 F4200
G1 X32.82 Y205.68 F4200
G1 X33 Y205.86 F4200
G1 X33 Y205.86 F4200
G1 X33.36 Y206.4 F4200
G1 X33.36 Y206.4 F4200
G1 X33.72 Y206.94 F4200
G1 X33.72 Y206.94 F4200
G1 X34.08 Y207.66 F4200
G0 Z4 F7200
G0 X34.62 Y209.28 F7200
G0 Z0.2 F7200
G1 X33.54 Y206.04 F4200
G1 X33.54 Y206.04 F4200
G1 X33.54 Y205.68 F4200
G1 X33.54 Y205.68 F4200
G1 X33.72 Y205.5 F4200
G1 X33.72 Y205.5 F4200
G1 X34.08 Y205.5 F4200
G1 X34.08 Y205.5 F4200
G1 X34.44 Y205.68 F4200
G1 X34.44 Y205.68 F4200
G1 X34.62 Y205.86 F4200
G1 X34.62 Y205.86 F4200
G1 X34.98 Y206.4 F4200
G0 Z4 F7200
G0 X33.54 Y207.84 F7200
G0 Z0.2 F7200
G1 X34.8 Y207.84 F4200
G0 Z4 F7200
G0 X34.98 Y206.4 F7200
G0 Z0.2 F7200
G1 X35.34 Y206.94 F4200
G1 X35.34 Y206.94 F4200
G1 X35.7 Y207.66 F4200
G0 Z4 F7200
G0 X36.24 Y209.28 F7200
G0 Z0.2 F7200
G1 X35.16 Y206.04 F4200
G1 X35.16 Y206.04 F4200
G1 X35.16 Y205.68 F4200
G1 X35.16 Y205.68 F4200
G1 X35.34 Y205.5 F4200
G1 X35.34 Y205.5 F4200
G1 X35.7 Y205.5 F4200
G1 X35.7 Y205.5 F4200
G1 X36.06 Y205.68 F4200
G1 X36.06 Y205.68 F4200
G1 X36.24 Y205.86 F4200
G1 X36.24 Y205.86 F4200
G1 X36.6 Y206.4 F4200
G0 Z4 F7200
G0 X35.16 Y207.84 F7200
G0 Z0.2 F7200
G1 X36.42 Y207.84 F4200
G0 Z4 F7200
G0 X36.6 Y206.4 F7200
G0 Z0.2 F7200
G1 X36.96 Y206.94 F4200
G1 X36.96 Y206.94 F4200
G1 X37.5 Y207.84 F4200
G1 X37.5 Y207.84 F4200
G1 X37.68 Y208.2 F4200
G1 X37.68 Y208.2 F4200
G1 X37.86 Y208.74 F4200
G1 X37.86 Y208.74 F4200
G1 X37.86 Y209.1 F4200
G1 X37.86 Y209.1 F4200
G1 X37.68 Y209.28 F4200
G1 X37.68 Y209.28 F4200
G1 X37.32 Y209.1 F4200
G1 X37.32 Y209.1 F4200
G1 X37.14 Y208.74 F4200
G1 X37.14 Y208.74 F4200
G1 X36.96 Y208.02 F4200
G1 X36.96 Y208.02 F4200
G1 X36.78 Y206.76 F4200
G1 X36.78 Y206.76 F4200
G1 X36.78 Y205.68 F4200
G1 X36.78 Y205.68 F4200
G1 X36.96 Y205.5 F4200
G1 X36.96 Y205.5 F4200
G1 X37.14 Y205.5 F4200
G1 X37.14 Y205.5 F4200
G1 X37.5 Y205.68 F4200
G1 X37.5 Y205.68 F4200
G1 X37.68 Y205.86 F4200
G1 X37.68 Y205.86 F4200
G1 X38.04 Y206.4 F4200
G0 Z4 F7200
G0 X38.22 Y205.86 F7200
G0 Z0.2 F7200
G1 X38.58 Y206.04 F4200
G1 X38.58 Y206.04 F4200
G1 X38.76 Y206.22 F4200
G1 X38.76 Y206.22 F4200
G1 X38.94 Y206.58 F4200
G1 X38.94 Y206.58 F4200
G1 X38.94 Y206.94 F4200
G1 X38.94 Y206.94 F4200
G1 X38.76 Y207.12 F4200
G1 X38.76 Y207.12 F4200
G1 X38.58 Y207.12 F4200
G1 X38.58 Y207.12 F4200
G1 X38.22 Y206.94 F4200
G1 X38.22 Y206.94 F4200
G1 X38.04 Y206.58 F4200
G1 X38.04 Y206.58 F4200
G1 X38.04 Y206.04 F4200
G1 X38.04 Y206.04 F4200
G1 X38.22 Y205.68 F4200
G1 X38.22 Y205.68 F4200
G1 X38.58 Y205.5 F4200
G1 X38.58 Y205.5 F4200
G1 X38.94 Y205.5 F4200
G1 X38.94 Y205.5 F4200
G1 X39.3 Y205.68 F4200
G1 X39.3 Y205.68 F4200
G1 X39.48 Y205.86 F4200
G1 X39.48 Y205.86 F4200
G1 X39.84 Y206.4 F4200
G0 Z4 F7200
G0 X42.72 Y205.5 F7200
G0 Z0.2 F7200
G1 X43.08 Y205.68 F4200
G1 X43.08 Y205.68 F4200
G1 X43.44 Y206.04 F4200
G1 X43.44 Y206.04 F4200
G1 X43.98 Y206.76 F4200
G1 X43.98 Y206.76 F4200
G1 X44.34 Y207.3 F4200
G1 X44.34 Y207.3 F4200
G1 X44.7 Y208.02 F4200
G1 X44.7 Y208.02 F4200
G1 X44.88 Y208.56 F4200
G1 X44.88 Y208.56 F4200
G1 X44.88 Y209.1 F4200
G1 X44.88 Y209.1 F4200
G1 X44.7 Y209.28 F4200
G1 X44.7 Y209.28 F4200
G1 X44.52 Y209.28 F4200
G1 X44.52 Y209.28 F4200
G1 X44.34 Y209.1 F4200
G1 X44.34 Y209.1 F4200
G1 X44.16 Y208.74 F4200
G1 X44.16 Y208.74 F4200
G1 X44.16 Y208.38 F4200
G1 X44.16 Y208.38 F4200
G1 X44.34 Y208.02 F4200
G1 X44.34 Y208.02 F4200
G1 X44.7 Y207.66 F4200
G1 X44.7 Y207.66 F4200
G1 X45.24 Y207.3 F4200
G1 X45.24 Y207.3 F4200
G1 X45.6 Y206.94 F4200
G1 X45.6 Y206.94 F4200
G1 X45.78 Y206.58 F4200
G1 X45.78 Y206.58 F4200
G1 X45.78 Y206.22 F4200
G1 X45.78 Y206.22 F4200
G1 X45.6 Y205.86 F4200
G1 X45.6 Y205.86 F4200
G1 X45.42 Y205.68 F4200
G1 X45.42 Y205.68 F4200
G1 X44.88 Y205.5 F4200
G1 X44.88 Y205.5 F4200
G1 X44.16 Y205.5 F4200
G1 X44.16 Y205.5 F4200
G1 X43.62 Y205.68 F4200
G1 X43.62 Y205.68 F4200
G1 X43.26 Y206.04 F4200
G1 X43.26 Y206.04 F4200
G1 X43.08 Y206.4 F4200
G1 X43.08 Y206.4 F4200
G1 X43.08 Y206.76 F4200
G0 Z4 F7200
G0 X47.4 Y206.58 F7200
G0 Z0.2 F7200
G1 X47.22 Y206.94 F4200
G1 X47.22 Y206.94 F4200
G1 X46.86 Y207.12 F4200
G1 X46.86 Y207.12 F4200
G1 X46.5 Y207.12 F4200
G1 X46.5 Y207.12 F4200
G1 X46.14 Y206.94 F4200
G1 X46.14 Y206.94 F4200
G1 X45.96 Y206.76 F4200
G1 X45.96 Y206.76 F4200
G1 X45.78 Y206.4 F4200
G1 X45.78 Y206.4 F4200
G1 X45.78 Y206.04 F4200
G1 X45.78 Y206.04 F4200
G1 X45.96 Y205.68 F4200
G1 X45.96 Y205.68 F4200
G1 X46.32 Y205.5 F4200
G1 X46.32 Y205.5 F4200
G1 X46.68 Y205.5 F4200
G1 X46.68 Y205.5 F4200
G1 X47.04 Y205.68 F4200
G1 X47.04 Y205.68 F4200
G1 X47.22 Y206.04 F4200
G1 X47.22 Y206.04 F4200
G1 X47.58 Y207.12 F4200
G1 X47.58 Y207.12 F4200
G1 X47.4 Y206.22 F4200
G1 X47.4 Y206.22 F4200
G1 X47.4 Y205.68 F4200
G1 X47.4 Y205.68 F4200
G1 X47.58 Y205.5 F4200
G1 X47.58 Y205.5 F4200
G1 X47.76 Y205.5 F4200
G1 X47.76 Y205.5 F4200
G1 X48.12 Y205.68 F4200
G1 X48.12 Y205.68 F4200
G1 X48.3 Y205.86 F4200
G1 X48.3 Y205.86 F4200
G1 X48.66 Y206.4 F4200
G1 X48.66 Y206.4 F4200
G1 X49.02 Y206.94 F4200
G1 X49.02 Y206.94 F4200
G1 X49.56 Y207.84 F4200
G1 X49.56 Y207.84 F4200
G1 X49.74 Y208.2 F4200
G1 X49.74 Y208.2 F4200
G1 X49.92 Y208.74 F4200
G1 X49.92 Y208.74 F4200
G1 X49.92 Y209.1 F4200
G1 X49.92 Y209.1 F4200
G1 X49.74 Y209.28 F4200
G1 X49.74 Y209.28 F4200
G1 X49.38 Y209.1 F4200
G1 X49.38 Y209.1 F4200
G1 X49.2 Y208.74 F4200
G1 X49.2 Y208.74 F4200
G1 X49.02 Y208.02 F4200
G1 X49.02 Y208.02 F4200
G1 X48.84 Y206.76 F4200
G1 X48.84 Y206.76 F4200
G1 X48.84 Y205.68 F4200
G1 X48.84 Y205.68 F4200
G1 X49.02 Y205.5 F4200
G1 X49.02 Y205.5 F4200
G1 X49.2 Y205.5 F4200
G1 X49.2 Y205.5 F4200
G1 X49.56 Y205.68 F4200
G1 X49.56 Y205.68 F4200
G1 X49.74 Y205.86 F4200
G1 X49.74 Y205.86 F4200
G1 X50.1 Y206.4 F4200
G1 X50.1 Y206.4 F4200
G1 X50.46 Y206.94 F4200
G1 X50.46 Y206.94 F4200
G1 X50.82 Y207.66 F4200
G0 Z4 F7200
G0 X51.36 Y209.28 F7200
G0 Z0.2 F7200
G1 X50.28 Y206.04 F4200
G1 X50.28 Y206.04 F4200
G1 X50.28 Y205.68 F4200
G1 X50.28 Y205.68 F4200
G1 X50.46 Y205.5 F4200
G1 X50.46 Y205.5 F4200
G1 X50.82 Y205.5 F4200
G1 X50.82 Y205.5 F4200
G1 X51.18 Y205.68 F4200
G1 X51.18 Y205.68 F4200
G1 X51.36 Y205.86 F4200
G1 X51.36 Y205.86 F4200
G1 X51.72 Y206.4 F4200
G0 Z4 F7200
G0 X50.28 Y207.84 F7200
G0 Z0.2 F7200
G1 X51.54 Y207.84 F4200
G0 Z4 F7200
G0 X51.9 Y205.86 F7200
G0 Z0.2 F7200
G1 X52.26 Y206.04 F4200
G1 X52.26 Y206.04 F4200
G1 X52.44 Y206.22 F4200
G1 X52.44 Y206.22 F4200
G1 X52.62 Y206.58 F4200
G1 X52.62 Y206.58 F4200
G1 X52.62 Y206.94 F4200
G1 X52.62 Y206.94 F4200
G1 X52.44 Y207.12 F4200
G1 X52.44 Y207.12 F4200
G1 X52.26 Y207.12 F4200
G1 X52.26 Y207.12 F4200
G1 X51.9 Y206.94 F4200
G1 X51.9 Y206.94 F4200
G1 X51.72 Y206.58 F4200
G1 X51.72 Y206.58 F4200
G1 X51.72 Y206.04 F4200
G1 X51.72 Y206.04 F4200
G1 X51.9 Y205.68 F4200
G1 X51.9 Y205.68 F4200
G1 X52.26 Y205.5 F4200
G1 X52.26 Y205.5 F4200
G1 X52.62 Y205.5 F4200
G1 X52.62 Y205.5 F4200
G1 X52.98 Y205.68 F4200
G1 X52.98 Y205.68 F4200
G1 X53.16 Y205.86 F4200
G1 X53.16 Y205.86 F4200
G1 X53.52 Y206.4 F4200
G0 Z4 F7200
G0 X55.14 Y206.58 F7200
G0 Z0.2 F7200
G1 X54.96 Y206.94 F4200
G1 X54.96 Y206.94 F4200
G1 X54.6 Y207.12 F4200
G1 X54.6 Y207.12 F4200
G1 X54.24 Y207.12 F4200
G1 X54.24 Y207.12 F4200
G1 X53.88 Y206.94 F4200
G1 X53.88 Y206.94 F4200
G1 X53.7 Y206.76 F4200
G1 X53.7 Y206.76 F4200
G1 X53.52 Y206.4 F4200
G1 X53.52 Y206.4 F4200
G1 X53.52 Y206.04 F4200
G1 X53.52 Y206.04 F4200
G1 X53.7 Y205.68 F4200
G1 X53.7 Y205.68 F4200
G1 X54.06 Y205.5 F4200
G1 X54.06 Y205.5 F4200
G1 X54.42 Y205.5 F4200
G1 X54.42 Y205.5 F4200
G1 X54.78 Y205.68 F4200
G1 X54.78 Y205.68 F4200
G1 X54.96 Y206.04 F4200
G1 X54.96 Y206.04 F4200
G1 X56.04 Y209.28 F4200
G0 Z4 F7200
G0 X55.32 Y207.12 F7200
G0 Z0.2 F7200
G1 X55.14 Y206.22 F4200
G1 X55.14 Y206.22 F4200
G1 X55.14 Y205.68 F4200
G1 X55.14 Y205.68 F4200
G1 X55.32 Y205.5 F4200
G1 X55.32 Y205.5 F4200
G1 X55.5 Y205.5 F4200
G1 X55.5 Y205.5 F4200
G1 X55.86 Y205.68 F4200
G1 X55.86 Y205.68 F4200
G1 X56.04 Y205.86 F4200
G1 X56.04 Y205.86 F4200
G1 X56.4 Y206.4 F4200
G0 Z4 F7200
G0 X60.9 Y208.2 F7200
G0 Z0.2 F7200
G1 X60.54 Y208.2 F4200
G1 X60.54 Y208.2 F4200
G1 X60.18 Y208.38 F4200
G1 X60.18 Y208.38 F4200
G1 X60 Y208.74 F4200
G1 X60 Y208.74 F4200
G1 X60.18 Y209.1 F4200
G1 X60.18 Y209.1 F4200
G1 X60.72 Y209.28 F4200
G1 X60.72 Y209.28 F4200
G1 X61.26 Y209.28 F4200
G1 X61.26 Y209.28 F4200
G1 X61.98 Y209.1 F4200
G1 X61.98 Y209.1 F4200
G1 X62.52 Y209.1 F4200
G1 X62.52 Y209.1 F4200
G1 X62.88 Y209.28 F4200
G0 Z4 F7200
G0 X61.98 Y209.1 F7200
G0 Z0.2 F7200
G1 X61.62 Y207.84 F4200
G1 X61.62 Y207.84 F4200
G1 X61.26 Y206.76 F4200
G1 X61.26 Y206.76 F4200
G1 X60.9 Y206.04 F4200
G1 X60.9 Y206.04 F4200
G1 X60.54 Y205.68 F4200
G1 X60.54 Y205.68 F4200
G1 X60.18 Y205.5 F4200
G1 X60.18 Y205.5 F4200
G1 X59.82 Y205.5 F4200
G1 X59.82 Y205.5 F4200
G1 X59.46 Y205.68 F4200
G1 X59.46 Y205.68 F4200
G1 X59.28 Y206.04 F4200
G1 X59.28 Y206.04 F4200
G1 X59.28 Y206.4 F4200
G1 X59.28 Y206.4 F4200
G1 X59.46 Y206.58 F4200
G1 X59.46 Y206.58 F4200
G1 X59.82 Y206.58 F4200
G1 X59.82 Y206.58 F4200
G1 X60.18 Y206.4 F4200
G0 Z4 F7200
G0 X60.72 Y207.48 F7200
G0 Z0.2 F7200
G1 X62.34 Y207.48 F4200
G0 Z4 F7200
G0 X63.42 Y208.02 F7200
G0 Z0.2 F7200
G1 X63.42 Y207.84 F4200
G1 X63.42 Y207.84 F4200
G1 X63.6 Y207.84 F4200
G1 X63.6 Y207.84 F4200
G1 X63.6 Y208.02 F4200
G1 X63.6 Y208.02 F4200
G1 X63.42 Y208.02 F4200
G0 Z4 F7200
G0 X62.88 Y206.4 F7200
G0 Z0.2 F7200
G1 X63.24 Y207.12 F4200
G1 X63.24 Y207.12 F4200
G1 X62.88 Y206.04 F4200
G1 X62.88 Y206.04 F4200
G1 X62.88 Y205.68 F4200
G1 X62.88 Y205.68 F4200
G1 X63.06 Y205.5 F4200
G1 X63.06 Y205.5 F4200
G1 X63.24 Y205.5 F4200
G1 X63.24 Y205.5 F4200
G1 X63.6 Y205.68 F4200
G1 X63.6 Y205.68 F4200
G1 X63.78 Y205.86 F4200
G1 X63.78 Y205.86 F4200
G1 X64.14 Y206.4 F4200
G1 X64.14 Y206.4 F4200
G1 X64.5 Y206.94 F4200
G1 X64.5 Y206.94 F4200
G1 X64.68 Y207.3 F4200
G1 X64.68 Y207.3 F4200
G1 X64.68 Y206.94 F4200
G1 X64.68 Y206.94 F4200
G1 X65.04 Y206.4 F4200
G1 X65.04 Y206.4 F4200
G1 X65.22 Y206.04 F4200
G1 X65.22 Y206.04 F4200
G1 X65.22 Y205.68 F4200
G1 X65.22 Y205.68 F4200
G1 X64.86 Y205.5 F4200
G0 Z4 F7200
G0 X64.14 Y205.68 F7200
G0 Z0.2 F7200
G1 X64.5 Y205.5 F4200
G1 X64.5 Y205.5 F4200
G1 X65.22 Y205.5 F4200
G1 X65.22 Y205.5 F4200
G1 X65.58 Y205.68 F4200
G1 X65.58 Y205.68 F4200
G1 X65.76 Y205.86 F4200
G1 X65.76 Y205.86 F4200
G1 X66.12 Y206.4 F4200
G1 X66.12 Y206.4 F4200
G1 X66.48 Y206.94 F4200
G1 X66.48 Y206.94 F4200
G1 X67.02 Y207.84 F4200
G1 X67.02 Y207.84 F4200
G1 X67.2 Y208.2 F4200
G1 X67.2 Y208.2 F4200
G1 X67.38 Y208.74 F4200
G1 X67.38 Y208.74 F4200
G1 X67.38 Y209.1 F4200
G1 X67.38 Y209.1 F4200
G1 X67.2 Y209.28 F4200
G1 X67.2 Y209.28 F4200
G1 X66.84 Y209.1 F4200
G1 X66.84 Y209.1 F4200
G1 X66.66 Y208.74 F4200
G1 X66.66 Y208.74 F4200
G1 X66.48 Y208.02 F4200
G1 X66.48 Y208.02 F4200
G1 X66.3 Y206.94 F4200
G1 X66.3 Y206.94 F4200
G1 X66.12 Y205.5 F4200
G1 X66.12 Y205.5 F4200
G1 X66.3 Y206.04 F4200
G1 X66.3 Y206.04 F4200
G1 X66.48 Y206.4 F4200
G1 X66.48 Y206.4 F4200
G1 X66.84 Y206.94 F4200
G1 X66.84 Y206.94 F4200
G1 X67.2 Y207.12 F4200
G1 X67.2 Y207.12 F4200
G1 X67.56 Y207.12 F4200
G1 X67.56 Y207.12 F4200
G1 X67.74 Y206.94 F4200
G1 X67.74 Y206.94 F4200
G1 X67.74 Y206.58 F4200
G1 X67.74 Y206.58 F4200
G1 X67.56 Y206.04 F4200
G1 X67.56 Y206.04 F4200
G1 X67.56 Y205.68 F4200
G1 X67.56 Y205.68 F4200
G1 X67.74 Y205.5 F4200
G1 X67.74 Y205.5 F4200
G1 X67.92 Y205.5 F4200
G1 X67.92 Y205.5 F4200
G1 X68.28 Y205.68 F4200
G1 X68.28 Y205.68 F4200
G1 X68.46 Y205.86 F4200
G1 X68.46 Y205.86 F4200
G1 X68.82 Y206.4 F4200
G0 Z4 F7200
G0 X69.18 Y206.22 F7200
G0 Z0.2 F7200
G1 X69 Y206.04 F4200
G1 X69 Y206.04 F4200
G1 X68.82 Y206.22 F4200
G1 X68.82 Y206.22 F4200
G1 X69 Y206.4 F4200
G1 X69 Y206.4 F4200
G1 X69.18 Y206.22 F4200
G1 X69.18 Y206.22 F4200
G1 X69.18 Y205.86 F4200
G1 X69.18 Y205.86 F4200
G1 X68.82 Y205.5 F4200
G0 Z4 F7200
G0 X23.1 Y193.08 F7200
G0 Z0.2 F7200
G1 X22.74 Y193.44 F4200
G1 X22.74 Y193.44 F4200
G1 X22.38 Y193.98 F4200
G1 X22.38 Y193.98 F4200
G1 X22.2 Y194.34 F4200
G1 X22.2 Y194.34 F4200
G1 X22.02 Y194.88 F4200
G1 X22.02 Y194.88 F4200
G1 X22.02 Y195.42 F4200
G1 X22.02 Y195.42 F4200
G1 X22.2 Y195.78 F4200
G1 X22.2 Y195.78 F4200
G1 X22.38 Y195.96 F4200
G1 X22.38 Y195.96 F4200
G1 X22.74 Y195.96 F4200
G1 X22.74 Y195.96 F4200
G1 X22.92 Y195.78 F4200
G1 X22.92 Y195.78 F4200
G1 X23.1 Y195.42 F4200
G1 X23.1 Y195.42 F4200
G1 X23.1 Y194.88 F4200
G1 X23.1 Y194.88 F4200
G1 X22.92 Y193.98 F4200
G1 X22.92 Y193.98 F4200
G1 X22.56 Y193.08 F4200
G1 X22.56 Y193.08 F4200
G1 X22.38 Y192.72 F4200
G1 X22.38 Y192.72 F4200
G1 X22.02 Y192.36 F4200
G1 X22.02 Y192.36 F4200
G1 X21.66 Y192.18 F4200
G1 X21.66 Y192.18 F4200
G1 X21.3 Y192.18 F4200
G1 X21.3 Y192.18 F4200
G1 X20.94 Y192.36 F4200
G1 X20.94 Y192.36 F4200
G1 X20.76 Y192.72 F4200
G1 X20.76 Y192.72 F4200
G1 X20.76 Y193.08 F4200
G1 X20.76 Y193.08 F4200
G1 X20.94 Y193.26 F4200
G1 X20.94 Y193.26 F4200
G1 X21.3 Y193.26 F4200
G1 X21.3 Y193.26 F4200
G1 X21.66 Y193.08 F4200
G0 Z4 F7200
G0 X23.1 Y193.08 F7200
G0 Z0.2 F7200
G1 X23.46 Y193.62 F4200
G1 X23.46 Y193.62 F4200
G1 X23.82 Y193.8 F4200
G1 X23.82 Y193.8 F4200
G1 X24 Y193.62 F4200
G1 X24 Y193.62 F4200
G1 X24 Y193.44 F4200
G1 X24 Y193.44 F4200
G1 X23.82 Y192.72 F4200
G1 X23.82 Y192.72 F4200
G1 X23.64 Y192.18 F4200
G0 Z4 F7200
G0 X23.82 Y192.72 F7200
G0 Z0.2 F7200
G1 X24 Y193.08 F4200
G1 X24 Y193.08 F4200
G1 X24.36 Y193.62 F4200
G1 X24.36 Y193.62 F4200
G1 X24.72 Y193.8 F4200
G1 X24.72 Y193.8 F4200
G1 X25.08 Y193.8 F4200
G1 X25.08 Y193.8 F4200
G1 X25.26 Y193.62 F4200
G1 X25.26 Y193.62 F4200
G1 X25.26 Y193.26 F4200
G1 X25.26 Y193.26 F4200
G1 X25.08 Y192.72 F4200
G1 X25.08 Y192.72 F4200
G1 X25.08 Y192.36 F4200
G1 X25.08 Y192.36 F4200
G1 X25.26 Y192.18 F4200
G1 X25.26 Y192.18 F4200
G1 X25.44 Y192.18 F4200
G1 X25.44 Y192.18 F4200
G1 X25.8 Y192.36 F4200
G1 X25.8 Y192.36 F4200
G1 X25.98 Y192.54 F4200
G1 X25.98 Y192.54 F4200
G1 X26.34 Y193.08 F4200
G0 Z4 F7200
G0 X29.22 Y193.08 F7200
G0 Z0.2 F7200
G1 X29.58 Y193.62 F4200
G1 X29.58 Y193.62 F4200
G1 X29.94 Y194.34 F4200
G0 Z4 F7200
G0 X30.48 Y195.96 F7200
G0 Z0.2 F7200
G1 X29.4 Y192.72 F4200
G1 X29.4 Y192.72 F4200
G1 X29.4 Y192.36 F4200
G1 X29.4 Y192.36 F4200
G1 X29.58 Y192.18 F4200
G1 X29.58 Y192.18 F4200
G1 X29.94 Y192.18 F4200
G1 X29.94 Y192.18 F4200
G1 X30.3 Y192.36 F4200
G1 X30.3 Y192.36 F4200
G1 X30.48 Y192.54 F4200
G1 X30.48 Y192.54 F4200
G1 X30.84 Y193.08 F4200
G0 Z4 F7200
G0 X29.4 Y194.52 F7200
G0 Z0.2 F7200
G1 X30.66 Y194.52 F4200
G0 Z4 F7200
G0 X30.84 Y193.08 F7200
G0 Z0.2 F7200
G1 X31.2 Y193.62 F4200
G1 X31.2 Y193.62 F4200
G1 X31.74 Y194.52 F4200
G1 X31.74 Y194.52 F4200
G1 X31.92 Y194.88 F4200
G1 X31.92 Y194.88 F4200
G1 X32.1 Y195.42 F4200
G1 X32.1 Y195.42 F4200
G1 X32.1 Y195.78 F4200
G1 X32.1 Y195.78 F4200
G1 X31.92 Y195.96 F4200
G1 X31.92 Y195.96 F4200
G1 X31.56 Y195.78 F4200
G1 X31.56 Y195.78 F4200
G1 X31.38 Y195.42 F4200
G1 X31.38 Y195.42 F4200
G1 X31.2 Y194.7 F4200
G1 X31.2 Y194.7 F4200
G1 X31.02 Y193.62 F4200
G1 X31.02 Y193.62 F4200
G1 X30.84 Y192.18 F4200
G1 X30.84 Y192.18 F4200
G1 X31.02 Y192.72 F4200
G1 X31.02 Y192.72 F4200
G1 X31.2 Y193.08 F4200
G1 X31.2 Y193.08 F4200
G1 X31.56 Y193.62 F4200
G1 X31.56 Y193.62 F4200
G1 X31.92 Y193.8 F4200
G1 X31.92 Y193.8 F4200
G1 X32.28 Y193.8 F4200
G1 X32.28 Y193.8 F4200
G1 X32.46 Y193.62 F4200
G1 X32.46 Y193.62 F4200
G1 X32.46 Y193.26 F4200
G1 X32.46 Y193.26 F4200
G1 X32.28 Y192.72 F4200
G1 X32.28 Y192.72 F4200
G1 X32.28 Y192.36 F4200
G1 X32.28 Y192.36 F4200
G1 X32.46 Y192.18 F4200
G1 X32.46 Y192.18 F4200
G1 X32.64 Y192.18 F4200
G1 X32.64 Y192.18 F4200
G1 X33 Y192.36 F4200
G1 X33 Y192.36 F4200
G1 X33.18 Y192.54 F4200
G1 X33.18 Y192.54 F4200
G1 X33.54 Y193.08 F4200
G0 Z4 F7200
G0 X34.08 Y194.7 F7200
G0 Z0.2 F7200
G1 X34.08 Y194.52 F4200
G1 X34.08 Y194.52 F4200
G1 X34.26 Y194.52 F4200
G1 X34.26 Y194.52 F4200
G1 X34.26 Y194.7 F4200
G1 X34.26 Y194.7 F4200
G1 X34.08 Y194.7 F4200
G0 Z4 F7200
G0 X33.54 Y193.08 F7200
G0 Z0.2 F7200
G1 X33.9 Y193.8 F4200
G1 X33.9 Y193.8 F4200
G1 X33.54 Y192.72 F4200
G1 X33.54 Y192.72 F4200
G1 X33.54 Y192.36 F4200
G1 X33.54 Y192.36 F4200
G1 X33.72 Y192.18 F4200
G1 X33.72 Y192.18 F4200
G1 X33.9 Y192.18 F4200
G1 X33.9 Y192.18 F4200
G1 X34.26 Y192.36 F4200
G1 X34.26 Y192.36 F4200
G1 X34.44 Y192.54 F4200
G1 X34.44 Y192.54 F4200
G1 X34.8 Y193.08 F4200
G1 X34.8 Y193.08 F4200
G1 X35.16 Y193.62 F4200
G1 X35.16 Y193.62 F4200
G1 X35.34 Y193.98 F4200
G1 X35.34 Y193.98 F4200
G1 X35.34 Y193.62 F4200
G1 X35.34 Y193.62 F4200
G1 X35.7 Y193.08 F4200
G1 X35.7 Y193.08 F4200
G1 X35.88 Y192.72 F4200
G1 X35.88 Y192.72 F4200
G1 X35.88 Y192.36 F4200
G1 X35.88 Y192.36 F4200
G1 X35.52 Y192.18 F4200
G0 Z4 F7200
G0 X34.8 Y192.36 F7200
G0 Z0.2 F7200
G1 X35.16 Y192.18 F4200
G1 X35.16 Y192.18 F4200
G1 X35.88 Y192.18 F4200
G1 X35.88 Y192.18 F4200
G1 X36.24 Y192.36 F4200
G1 X36.24 Y192.36 F4200
G1 X36.42 Y192.54 F4200
G1 X36.42 Y192.54 F4200
G1 X36.78 Y193.08 F4200
G0 Z4 F7200
G0 X39.66 Y193.08 F7200
G0 Z0.2 F7200
G1 X40.02 Y193.62 F4200
G1 X40.02 Y193.62 F4200
G1 X40.2 Y193.98 F4200
G1 X40.2 Y193.98 F4200
G1 X40.2 Y193.62 F4200
G1 X40.2 Y193.62 F4200
G1 X40.56 Y193.08 F4200
G1 X40.56 Y193.08 F4200
G1 X40.74 Y192.72 F4200
G1 X40.74 Y192.72 F4200
G1 X40.74 Y192.36 F4200
G1 X40.74 Y192.36 F4200
G1 X40.38 Y192.18 F4200
G0 Z4 F7200
G0 X39.66 Y192.36 F7200
G0 Z0.2 F7200
G1 X40.02 Y192.18 F4200
G1 X40.02 Y192.18 F4200
G1 X40.74 Y192.18 F4200
G1 X40.74 Y192.18 F4200
G1 X41.1 Y192.36 F4200
G1 X41.1 Y192.36 F4200
G1 X41.28 Y192.54 F4200
G1 X41.28 Y192.54 F4200
G1 X41.64 Y193.08 F4200
G0 Z4 F7200
G0 X41.82 Y192.54 F7200
G0 Z0.2 F7200
G1 X42.18 Y192.72 F4200
G1 X42.18 Y192.72 F4200
G1 X42.36 Y192.9 F4200
G1 X42.36 Y192.9 F4200
G1 X42.54 Y193.26 F4200
G1 X42.54 Y193.26 F4200
G1 X42.54 Y193.62 F4200
G1 X42.54 Y193.62 F4200
G1 X42.36 Y193.8 F4200
G1 X42.36 Y193.8 F4200
G1 X42.18 Y193.8 F4200
G1 X42.18 Y193.8 F4200
G1 X41.82 Y193.62 F4200
G1 X41.82 Y193.62 F4200
G1 X41.64 Y193.26 F4200
G1 X41.64 Y193.26 F4200
G1 X41.64 Y192.72 F4200
G1 X41.64 Y192.72 F4200
G1 X41.82 Y192.36 F4200
G1 X41.82 Y192.36 F4200
G1 X42.18 Y192.18 F4200
G1 X42.18 Y192.18 F4200
G1 X42.54 Y192.18 F4200
G1 X42.54 Y192.18 F4200
G1 X42.9 Y192.36 F4200
G1 X42.9 Y192.36 F4200
G1 X43.08 Y192.54 F4200
G1 X43.08 Y192.54 F4200
G1 X43.44 Y193.08 F4200
G0 Z4 F7200
G0 X45.06 Y193.26 F7200
G0 Z0.2 F7200
G1 X44.88 Y193.62 F4200
G1 X44.88 Y193.62 F4200
G1 X44.52 Y193.8 F4200
G1 X44.52 Y193.8 F4200
G1 X44.16 Y193.8 F4200
G1 X44.16 Y193.8 F4200
G1 X43.8 Y193.62 F4200
G1 X43.8 Y193.62 F4200
G1 X43.62 Y193.44 F4200
G1 X43.62 Y193.44 F4200
G1 X43.44 Y193.08 F4200
G1 X43.44 Y193.08 F4200
G1 X43.44 Y192.72 F4200
G1 X43.44 Y192.72 F4200
G1 X43.62 Y192.36 F4200
G1 X43.62 Y192.36 F4200
G1 X43.98 Y192.18 F4200
G1 X43.98 Y192.18 F4200
G1 X44.34 Y192.18 F4200
G1 X44.34 Y192.18 F4200
G1 X44.7 Y192.36 F4200
G1 X44.7 Y192.36 F4200
G1 X44.88 Y192.72 F4200
G1 X44.88 Y192.72 F4200
G1 X45.24 Y193.8 F4200
G1 X45.24 Y193.8 F4200
G1 X45.06 Y192.9 F4200
G1 X45.06 Y192.9 F4200
G1 X45.06 Y192.36 F4200
G1 X45.06 Y192.36 F4200
G1 X45.24 Y192.18 F4200
G1 X45.24 Y192.18 F4200
G1 X45.42 Y192.18 F4200
G1 X45.42 Y192.18 F4200
G1 X45.78 Y192.36 F4200
G1 X45.78 Y192.36 F4200
G1 X45.96 Y192.54 F4200
G1 X45.96 Y192.54 F4200
G1 X46.32 Y193.08 F4200
G1 X46.32 Y193.08 F4200
G1 X46.68 Y193.62 F4200
G1 X46.68 Y193.62 F4200
G1 X46.86 Y193.98 F4200
G1 X46.86 Y193.98 F4200
G1 X46.86 Y193.62 F4200
G1 X46.86 Y193.62 F4200
G1 X47.22 Y193.08 F4200
G1 X47.22 Y193.08 F4200
G1 X47.4 Y192.72 F4200
G1 X47.4 Y192.72 F4200
G1 X47.4 Y192.36 F4200
G1 X47.4 Y192.36 F4200
G1 X47.04 Y192.18 F4200
G0 Z4 F7200
G0 X46.32 Y192.36 F7200
G0 Z0.2 F7200
G1 X46.68 Y192.18 F4200
G1 X46.68 Y192.18 F4200
G1 X47.4 Y192.18 F4200
G1 X47.4 Y192.18 F4200
G1 X47.76 Y192.36 F4200
G1 X47.76 Y192.36 F4200
G1 X47.94 Y192.54 F4200
G1 X47.94 Y192.54 F4200
G1 X48.3 Y193.08 F4200
G0 Z4 F7200
G0 X49.38 Y193.8 F7200
G0 Z0.2 F7200
G1 X49.02 Y193.8 F4200
G1 X49.02 Y193.8 F4200
G1 X48.66 Y193.62 F4200
G1 X48.66 Y193.62 F4200
G1 X48.48 Y193.44 F4200
G1 X48.48 Y193.44 F4200
G1 X48.3 Y193.08 F4200
G1 X48.3 Y193.08 F4200
G1 X48.3 Y192.72 F4200
G1 X48.3 Y192.72 F4200
G1 X48.48 Y192.36 F4200
G1 X48.48 Y192.36 F4200
G1 X48.84 Y192.18 F4200
G1 X48.84 Y192.18 F4200
G1 X49.2 Y192.18 F4200
G1 X49.2 Y192.18 F4200
G1 X49.56 Y192.36 F4200
G1 X49.56 Y192.36 F4200
G1 X49.74 Y192.54 F4200
G1 X49.74 Y192.54 F4200
G1 X49.92 Y192.9 F4200
G1 X49.92 Y192.9 F4200
G1 X49.92 Y193.26 F4200
G1 X49.92 Y193.26 F4200
G1 X49.74 Y193.62 F4200
G1 X49.74 Y193.62 F4200
G1 X49.38 Y193.8 F4200
G1 X49.38 Y193.8 F4200
G1 X49.2 Y193.62 F4200
G1 X49.2 Y193.62 F4200
G1 X49.2 Y193.26 F4200
G1 X49.2 Y193.26 F4200
G1 X49.38 Y192.9 F4200
G1 X49.38 Y192.9 F4200
G1 X49.74 Y192.72 F4200
G1 X49.74 Y192.72 F4200
G1 X50.28 Y192.72 F4200
G1 X50.28 Y192.72 F4200
G1 X50.64 Y192.9 F4200
G1 X50.64 Y192.9 F4200
G1 X50.82 Y193.08 F4200
G1 X50.82 Y193.08 F4200
G1 X51.18 Y193.62 F4200
G1 X51.18 Y193.62 F4200
G1 X51.54 Y193.8 F4200
G1 X51.54 Y193.8 F4200
G1 X51.72 Y193.62 F4200
G1 X51.72 Y193.62 F4200
G1 X51.72 Y193.44 F4200
G1 X51.72 Y193.44 F4200
G1 X51.54 Y192.72 F4200
G1 X51.54 Y192.72 F4200
G1 X51.36 Y192.18 F4200
G0 Z4 F7200
G0 X51.54 Y192.72 F7200
G0 Z0.2 F7200
G1 X51.72 Y193.08 F4200
G1 X51.72 Y193.08 F4200
G1 X52.08 Y193.62 F4200
G1 X52.08 Y193.62 F4200
G1 X52.44 Y193.8 F4200
G1 X52.44 Y193.8 F4200
G1 X52.8 Y193.8 F4200
G1 X52.8 Y193.8 F4200
G1 X52.98 Y193.62 F4200
G1 X52.98 Y193.62 F4200
G1 X52.98 Y193.26 F4200
G1 X52.98 Y193.26 F4200
G1 X52.8 Y192.72 F4200
G1 X52.8 Y192.72 F4200
G1 X52.8 Y192.36 F4200
G1 X52.8 Y192.36 F4200
G1 X52.98 Y192.18 F4200
G1 X52.98 Y192.18 F4200
G1 X53.16 Y192.18 F4200
G1 X53.16 Y192.18 F4200
G1 X53.52 Y192.36 F4200
G1 X53.52 Y192.36 F4200
G1 X53.7 Y192.54 F4200
G1 X53.7 Y192.54 F4200
G1 X54.06 Y193.08 F4200
G0 Z4 F7200
G0 X58.02 Y193.8 F7200
G0 Z0.2 F7200
G1 X57.66 Y193.8 F4200
G1 X57.66 Y193.8 F4200
G1 X57.3 Y193.62 F4200
G1 X57.3 Y193.62 F4200
G1 X57.12 Y193.44 F4200
G1 X57.12 Y193.44 F4200
G1 X56.94 Y193.08 F4200
G1 X56.94 Y193.08 F4200
G1 X56.94 Y192.72 F4200
G1 X56.94 Y192.72 F4200
G1 X57.12 Y192.36 F4200
G1 X57.12 Y192.36 F4200
G1 X57.48 Y192.18 F4200
G1 X57.48 Y192.18 F4200
G1 X57.84 Y192.18 F4200
G1 X57.84 Y192.18 F4200
G1 X58.2 Y192.36 F4200
G1 X58.2 Y192.36 F4200
G1 X58.38 Y192.54 F4200
G1 X58.38 Y192.54 F4200
G1 X58.56 Y192.9 F4200
G1 X58.56 Y192.9 F4200
G1 X58.56 Y193.26 F4200
G1 X58.56 Y193.26 F4200
G1 X58.38 Y193.62 F4200
G1 X58.38 Y193.62 F4200
G1 X58.02 Y193.8 F4200
G1 X58.02 Y193.8 F4200
G1 X57.84 Y193.62 F4200
G1 X57.84 Y193.62 F4200
G1 X57.84 Y193.26 F4200
G1 X57.84 Y193.26 F4200
G1 X58.02 Y192.9 F4200
G1 X58.02 Y192.9 F4200
G1 X58.38 Y192.72 F4200
G1 X58.38 Y192.72 F4200
G1 X58.92 Y192.72 F4200
G1 X58.92 Y192.72 F4200
G1 X59.28 Y192.9 F4200
G1 X59.28 Y192.9 F4200
G1 X59.46 Y193.08 F4200
G0 Z4 F7200
G0 X60.36 Y193.08 F7200
G0 Z0.2 F7200
G1 X61.08 Y193.98 F4200
G1 X61.08 Y193.98 F4200
G1 X61.44 Y194.52 F4200
G1 X61.44 Y194.52 F4200
G1 X61.62 Y194.88 F4200
G1 X61.62 Y194.88 F4200
G1 X61.8 Y195.42 F4200
G1 X61.8 Y195.42 F4200
G1 X61.8 Y195.78 F4200
G1 X61.8 Y195.78 F4200
G1 X61.62 Y195.96 F4200
G1 X61.62 Y195.96 F4200
G1 X61.26 Y195.78 F4200
G1 X61.26 Y195.78 F4200
G1 X61.08 Y195.42 F4200
G1 X61.08 Y195.42 F4200
G1 X60.72 Y193.98 F4200
G1 X60.72 Y193.98 F4200
G1 X60.18 Y192.36 F4200
G1 X60.18 Y192.36 F4200
G1 X59.64 Y191.1 F4200
G1 X59.64 Y191.1 F4200
G1 X59.46 Y190.56 F4200
G1 X59.46 Y190.56 F4200
G1 X59.46 Y190.2 F4200
G1 X59.46 Y190.2 F4200
G1 X59.64 Y190.02 F4200
G1 X59.64 Y190.02 F4200
G1 X60 Y190.2 F4200
G1 X60 Y190.2 F4200
G1 X60.18 Y190.74 F4200
G1 X60.18 Y190.74 F4200
G1 X60.36 Y192.36 F4200
G1 X60.36 Y192.36 F4200
G1 X60.54 Y192.18 F4200
G1 X60.54 Y192.18 F4200
G1 X60.9 Y192.18 F4200
G1 X60.9 Y192.18 F4200
G1 X61.26 Y192.36 F4200
G1 X61.26 Y192.36 F4200
G1 X61.44 Y192.54 F4200
G1 X61.44 Y192.54 F4200
G1 X61.8 Y193.08 F4200
G0 Z4 F7200
G0 X64.68 Y193.08 F7200
G0 Z0.2 F7200
G1 X65.04 Y193.62 F4200
G1 X65.04 Y193.62 F4200
G1 X65.58 Y194.52 F4200
G1 X65.58 Y194.52 F4200
G1 X65.76 Y194.88 F4200
G1 X65.76 Y194.88 F4200
G1 X65.94 Y195.42 F4200
G1 X65.94 Y195.42 F4200
G1 X65.94 Y195.78 F4200
G1 X65.94 Y195.78 F4200
G1 X65.76 Y195.96 F4200
G1 X65.76 Y195.96 F4200
G1 X65.4 Y195.78 F4200
G1 X65.4 Y195.78 F4200
G1 X65.22 Y195.42 F4200
G1 X65.22 Y195.42 F4200
G1 X65.04 Y194.7 F4200
G1 X65.04 Y194.7 F4200
G1 X64.86 Y193.44 F4200
G1 X64.86 Y193.44 F4200
G1 X64.86 Y192.36 F4200
G1 X64.86 Y192.36 F4200
G1 X65.04 Y192.18 F4200
G1 X65.04 Y192.18 F4200
G1 X65.22 Y192.18 F4200
G1 X65.22 Y192.18 F4200
G1 X65.58 Y192.36 F4200
G1 X65.58 Y192.36 F4200
G1 X65.94 Y192.72 F4200
G1 X65.94 Y192.72 F4200
G1 X66.12 Y193.26 F4200
G1 X66.12 Y193.26 F4200
G1 X66.12 Y193.8 F4200
G1 X66.12 Y193.8 F4200
G1 X66.3 Y193.08 F4200
G1 X66.3 Y193.08 F4200
G1 X66.48 Y192.9 F4200
G1 X66.48 Y192.9 F4200
G1 X66.84 Y192.9 F4200
G1 X66.84 Y192.9 F4200
G1 X67.2 Y193.08 F4200
G1 X67.2 Y193.08 F4200
G1 X67.56 Y193.62 F4200
G1 X67.56 Y193.62 F4200
G1 X68.1 Y194.52 F4200
G1 X68.1 Y194.52 F4200
G1 X68.28 Y194.88 F4200
G1 X68.28 Y194.88 F4200
G1 X68.46 Y195.42 F4200
G1 X68.46 Y195.42 F4200
G1 X68.46 Y195.78 F4200
G1 X68.46 Y195.78 F4200
G1 X68.28 Y195.96 F4200
G1 X68.28 Y195.96 F4200
G1 X67.92 Y195.78 F4200
G1 X67.92 Y195.78 F4200
G1 X67.74 Y195.42 F4200
G1 X67.74 Y195.42 F4200
G1 X67.56 Y194.7 F4200
G1 X67.56 Y194.7 F4200
G1 X67.38 Y193.44 F4200
G1 X67.38 Y193.44 F4200
G1 X67.38 Y192.36 F4200
G1 X67.38 Y192.36 F4200
G1 X67.56 Y192.18 F4200
G1 X67.56 Y192.18 F4200
G1 X67.74 Y192.18 F4200
G1 X67.74 Y192.18 F4200
G1 X68.1 Y192.36 F4200
G1 X68.1 Y192.36 F4200
G1 X68.28 Y192.54 F4200
G1 X68.28 Y192.54 F4200
G1 X68.64 Y193.08 F4200
G0 Z4 F7200
G0 X69.72 Y193.8 F7200
G0 Z0.2 F7200
G1 X69.36 Y193.8 F4200
G1 X69.36 Y193.8 F4200
G1 X69 Y193.62 F4200
G1 X69 Y193.62 F4200
G1 X68.82 Y193.44 F4200
G1 X68.82 Y193.44 F4200
G1 X68.64 Y193.08 F4200
G1 X68.64 Y193.08 F4200
G1 X68.64 Y192.72 F4200
G1 X68.64 Y192.72 F4200
G1 X68.82 Y192.36 F4200
G1 X68.82 Y192.36 F4200
G1 X69.18 Y192.18 F4200
G1 X69.18 Y192.18 F4200
G1 X69.54 Y192.18 F4200
G1 X69.54 Y192.18 F4200
G1 X69.9 Y192.36 F4200
G1 X69.9 Y192.36 F4200
G1 X70.08 Y192.54 F4200
G1 X70.08 Y192.54 F4200
G1 X70.26 Y192.9 F4200
G1 X70.26 Y192.9 F4200
G1 X70.26 Y193.26 F4200
G1 X70.26 Y193.26 F4200
G1 X70.08 Y193.62 F4200
G1 X70.08 Y193.62 F4200
G1 X69.72 Y193.8 F4200
G1 X69.72 Y193.8 F4200
G1 X69.54 Y193.62 F4200
G1 X69.54 Y193.62 F4200
G1 X69.54 Y193.26 F4200
G1 X69.54 Y193.26 F4200
G1 X69.72 Y192.9 F4200
G1 X69.72 Y192.9 F4200
G1 X70.08 Y192.72 F4200
G1 X70.08 Y192.72 F4200
G1 X70.62 Y192.72 F4200
G1 X70.62 Y192.72 F4200
G1 X70.98 Y192.9 F4200
G1 X70.98 Y192.9 F4200
G1 X71.16 Y193.08 F4200
G0 Z4 F7200
G0 X72.24 Y193.8 F7200
G0 Z0.2 F7200
G1 X71.88 Y193.8 F4200
G1 X71.88 Y193.8 F4200
G1 X71.52 Y193.62 F4200
G1 X71.52 Y193.62 F4200
G1 X71.34 Y193.44 F4200
G1 X71.34 Y193.44 F4200
G1 X71.16 Y193.08 F4200
G1 X71.16 Y193.08 F4200
G1 X71.16 Y192.72 F4200
G1 X71.16 Y192.72 F4200
G1 X71.34 Y192.36 F4200
G1 X71.34 Y192.36 F4200
G1 X71.7 Y192.18 F4200
G1 X71.7 Y192.18 F4200
G1 X72.06 Y192.18 F4200
G1 X72.06 Y192.18 F4200
G1 X72.42 Y192.36 F4200
G1 X72.42 Y192.36 F4200
G1 X72.6 Y192.54 F4200
G1 X72.6 Y192.54 F4200
G1 X72.78 Y192.9 F4200
G1 X72.78 Y192.9 F4200
G1 X72.78 Y193.26 F4200
G1 X72.78 Y193.26 F4200
G1 X72.6 Y193.62 F4200
G1 X72.6 Y193.62 F4200
G1 X72.24 Y193.8 F4200
G1 X72.24 Y193.8 F4200
G1 X72.06 Y193.62 F4200
G1 X72.06 Y193.62 F4200
G1 X72.06 Y193.26 F4200
G1 X72.06 Y193.26 F4200
G1 X72.24 Y192.9 F4200
G1 X72.24 Y192.9 F4200
G1 X72.6 Y192.72 F4200
G1 X72.6 Y192.72 F4200
G1 X73.14 Y192.72 F4200
G1 X73.14 Y192.72 F4200
G1 X73.5 Y192.9 F4200
G1 X73.5 Y192.9 F4200
G1 X73.68 Y193.08 F4200
G1 X73.68 Y193.08 F4200
G1 X74.04 Y193.62 F4200
G1 X74.04 Y193.62 F4200
G1 X74.4 Y193.8 F4200
G1 X74.4 Y193.8 F4200
G1 X74.58 Y193.62 F4200
G1 X74.58 Y193.62 F4200
G1 X74.58 Y193.44 F4200
G1 X74.58 Y193.44 F4200
G1 X74.4 Y192.72 F4200
G1 X74.4 Y192.72 F4200
G1 X74.22 Y192.18 F4200
G0 Z4 F7200
G0 X74.4 Y192.72 F7200
G0 Z0.2 F7200
G1 X74.58 Y193.08 F4200
G1 X74.58 Y193.08 F4200
G1 X74.94 Y193.62 F4200
G1 X74.94 Y193.62 F4200
G1 X75.3 Y193.8 F4200
G1 X75.3 Y193.8 F4200
G1 X75.66 Y193.8 F4200
G1 X75.66 Y193.8 F4200
G1 X75.84 Y193.62 F4200
G1 X75.84 Y193.62 F4200
G1 X75.84 Y193.44 F4200
G1 X75.84 Y193.44 F4200
G1 X75.66 Y192.72 F4200
G1 X75.66 Y192.72 F4200
G1 X75.48 Y192.18 F4200
G0 Z4 F7200
G0 X75.66 Y192.72 F7200
G0 Z0.2 F7200
G1 X75.84 Y193.08 F4200
G1 X75.84 Y193.08 F4200
G1 X76.2 Y193.62 F4200
G1 X76.2 Y193.62 F4200
G1 X76.56 Y193.8 F4200
G1 X76.56 Y193.8 F4200
G1 X76.92 Y193.8 F4200
G1 X76.92 Y193.8 F4200
G1 X77.1 Y193.62 F4200
G1 X77.1 Y193.62 F4200
G1 X77.1 Y193.26 F4200
G1 X77.1 Y193.26 F4200
G1 X76.92 Y192.72 F4200
G1 X76.92 Y192.72 F4200
G1 X76.92 Y192.36 F4200
G1 X76.92 Y192.36 F4200
G1 X77.1 Y192.18 F4200
G1 X77.1 Y192.18 F4200
G1 X77.28 Y192.18 F4200
G1 X77.28 Y192.18 F4200
G1 X77.64 Y192.36 F4200
G1 X77.64 Y192.36 F4200
G1 X77.82 Y192.54 F4200
G1 X77.82 Y192.54 F4200
G1 X78.18 Y193.08 F4200
G0 Z4 F7200
G0 X78.72 Y194.7 F7200
G0 Z0.2 F7200
G1 X78.72 Y194.52 F4200
G1 X78.72 Y194.52 F4200
G1 X78.9 Y194.52 F4200
G1 X78.9 Y194.52 F4200
G1 X78.9 Y194.7 F4200
G1 X78.9 Y194.7 F4200
G1 X78.72 Y194.7 F4200
G0 Z4 F7200
G0 X78.18 Y193.08 F7200
G0 Z0.2 F7200
G1 X78.54 Y193.8 F4200
G1 X78.54 Y193.8 F4200
G1 X78.18 Y192.72 F4200
G1 X78.18 Y192.72 F4200
G1 X78.18 Y192.36 F4200
G1 X78.18 Y192.36 F4200
G1 X78.36 Y192.18 F4200
G1 X78.36 Y192.18 F4200
G1 X78.54 Y192.18 F4200
G1 X78.54 Y192.18 F4200
G1 X78.9 Y192.36 F4200
G1 X78.9 Y192.36 F4200
G1 X79.08 Y192.54 F4200
G1 X79.08 Y192.54 F4200
G1 X79.44 Y193.08 F4200
G1 X79.44 Y193.08 F4200
G1 X79.8 Y193.62 F4200
G1 X79.8 Y193.62 F4200
G1 X80.16 Y193.8 F4200
G1 X80.16 Y193.8 F4200
G1 X80.34 Y193.62 F4200
G1 X80.34 Y193.62 F4200
G1 X80.34 Y193.44 F4200
G1 X80.34 Y193.44 F4200
G1 X80.16 Y192.72 F4200
G1 X80.16 Y192.72 F4200
G1 X79.98 Y192.18 F4200
G0 Z4 F7200
G0 X80.16 Y192.72 F7200
G0 Z0.2 F7200
G1 X80.34 Y193.08 F4200
G1 X80.34 Y193.08 F4200
G1 X80.7 Y193.62 F4200
G1 X80.7 Y193.62 F4200
G1 X81.06 Y193.8 F4200
G1 X81.06 Y193.8 F4200
G1 X81.42 Y193.8 F4200
G1 X81.42 Y193.8 F4200
G1 X81.6 Y193.62 F4200
G1 X81.6 Y193.62 F4200
G1 X81.6 Y193.26 F4200
G1 X81.6 Y193.26 F4200
G1 X81.42 Y192.72 F4200
G1 X81.42 Y192.72 F4200
G1 X81.42 Y192.36 F4200
G1 X81.42 Y192.36 F4200
G1 X81.6 Y192.18 F4200
G1 X81.6 Y192.18 F4200
G1 X81.78 Y192.18 F4200
G1 X81.78 Y192.18 F4200
G1 X82.14 Y192.36 F4200
G1 X82.14 Y192.36 F4200
G1 X82.32 Y192.54 F4200
G1 X82.32 Y192.54 F4200
G1 X82.68 Y193.08 F4200
G0 Z4 F7200
G0 X84.3 Y193.26 F7200
G0 Z0.2 F7200
G1 X84.12 Y193.62 F4200
G1 X84.12 Y193.62 F4200
G1 X83.76 Y193.8 F4200
G1 X83.76 Y193.8 F4200
G1 X83.4 Y193.8 F4200
G1 X83.4 Y193.8 F4200
G1 X83.04 Y193.62 F4200
G1 X83.04 Y193.62 F4200
G1 X82.86 Y193.44 F4200
G1 X82.86 Y193.44 F4200
G1 X82.68 Y193.08 F4200
G1 X82.68 Y193.08 F4200
G1 X82.68 Y192.72 F4200
G1 X82.68 Y192.72 F4200
G1 X82.86 Y192.36 F4200
G1 X82.86 Y192.36 F4200
G1 X83.22 Y192.18 F4200
G1 X83.22 Y192.18 F4200
G1 X83.58 Y192.18 F4200
G1 X83.58 Y192.18 F4200
G1 X83.94 Y192.36 F4200
G1 X83.94 Y192.36 F4200
G1 X84.12 Y192.54 F4200
G0 Z4 F7200
G0 X84.48 Y193.8 F7200
G0 Z0.2 F7200
G1 X84.12 Y192.54 F4200
G1 X84.12 Y192.54 F4200
G1 X83.4 Y190.56 F4200
G1 X83.4 Y190.56 F4200
G1 X83.22 Y190.2 F4200
G1 X83.22 Y190.2 F4200
G1 X82.86 Y190.02 F4200
G1 X82.86 Y190.02 F4200
G1 X82.68 Y190.2 F4200
G1 X82.68 Y190.2 F4200
G1 X82.68 Y190.56 F4200
G1 X82.68 Y190.56 F4200
G1 X82.86 Y191.1 F4200
G1 X82.86 Y191.1 F4200
G1 X83.4 Y191.64 F4200
G1 X83.4 Y191.64 F4200
G1 X83.94 Y192 F4200
G1 X83.94 Y192 F4200
G1 X84.3 Y192.18 F4200
G1 X84.3 Y192.18 F4200
G1 X84.84 Y192.54 F4200
G1 X84.84 Y192.54 F4200
G1 X85.38 Y193.08 F4200
G0 Z4 F7200
G0 X89.16 Y193.08 F7200
G0 Z0.2 F7200
G1 X89.88 Y193.98 F4200
G1 X89.88 Y193.98 F4200
G1 X90.24 Y194.52 F4200
G1 X90.24 Y194.52 F4200
G1 X90.42 Y194.88 F4200
G1 X90.42 Y194.88 F4200
G1 X90.6 Y195.42 F4200
G1 X90.6 Y195.42 F4200
G1 X90.6 Y195.78 F4200
G1 X90.6 Y195.78 F4200
G1 X90.42 Y195.96 F4200
G1 X90.42 Y195.96 F4200
G1 X90.06 Y195.78 F4200
G1 X90.06 Y195.78 F4200
G1 X89.88 Y195.42 F4200
G1 X89.88 Y195.42 F4200
G1 X89.52 Y193.98 F4200
G1 X89.52 Y193.98 F4200
G1 X88.98 Y192.36 F4200
G1 X88.98 Y192.36 F4200
G1 X88.44 Y191.1 F4200
G1 X88.44 Y191.1 F4200
G1 X88.26 Y190.56 F4200
G1 X88.26 Y190.56 F4200
G1 X88.26 Y190.2 F4200
G1 X88.26 Y190.2 F4200
G1 X88.44 Y190.02 F4200
G1 X88.44 Y190.02 F4200
G1 X88.8 Y190.2 F4200
G1 X88.8 Y190.2 F4200
G1 X88.98 Y190.74 F4200
G1 X88.98 Y190.74 F4200
G1 X89.16 Y192.36 F4200
G1 X89.16 Y192.36 F4200
G1 X89.34 Y192.18 F4200
G1 X89.34 Y192.18 F4200
G1 X89.7 Y192.18 F4200
G1 X89.7 Y192.18 F4200
G1 X90.06 Y192.36 F4200
G1 X90.06 Y192.36 F4200
G1 X90.24 Y192.54 F4200
G1 X90.24 Y192.54 F4200
G1 X90.6 Y193.08 F4200
G1 X90.6 Y193.08 F4200
G1 X90.96 Y193.62 F4200
G1 X90.96 Y193.62 F4200
G1 X91.5 Y194.52 F4200
G1 X91.5 Y194.52 F4200
G1 X91.68 Y194.88 F4200
G1 X91.68 Y194.88 F4200
G1 X91.86 Y195.42 F4200
G1 X91.86 Y195.42 F4200
G1 X91.86 Y195.78 F4200
G1 X91.86 Y195.78 F4200
G1 X91.68 Y195.96 F4200
G1 X91.68 Y195.96 F4200
G1 X91.32 Y195.78 F4200
G1 X91.32 Y195.78 F4200
G1 X91.14 Y195.42 F4200
G1 X91.14 Y195.42 F4200
G1 X90.96 Y194.7 F4200
G1 X90.96 Y194.7 F4200
G1 X90.78 Y193.44 F4200
G1 X90.78 Y193.44 F4200
G1 X90.78 Y192.36 F4200
G1 X90.78 Y192.36 F4200
G1 X90.96 Y192.18 F4200
G1 X90.96 Y192.18 F4200
G1 X91.14 Y192.18 F4200
G1 X91.14 Y192.18 F4200
G1 X91.5 Y192.36 F4200
G1 X91.5 Y192.36 F4200
G1 X91.68 Y192.54 F4200
G1 X91.68 Y192.54 F4200
G1 X92.04 Y193.08 F4200
G0 Z4 F7200
G0 X93.12 Y193.8 F7200
G0 Z0.2 F7200
G1 X92.76 Y193.8 F4200
G1 X92.76 Y193.8 F4200
G1 X92.4 Y193.62 F4200
G1 X92.4 Y193.62 F4200
G1 X92.22 Y193.44 F4200
G1 X92.22 Y193.44 F4200
G1 X92.04 Y193.08 F4200
G1 X92.04 Y193.08 F4200
G1 X92.04 Y192.72 F4200
G1 X92.04 Y192.72 F4200
G1 X92.22 Y192.36 F4200
G1 X92.22 Y192.36 F4200
G1 X92.58 Y192.18 F4200
G1 X92.58 Y192.18 F4200
G1 X92.94 Y192.18 F4200
G1 X92.94 Y192.18 F4200
G1 X93.3 Y192.36 F4200
G1 X93.3 Y192.36 F4200
G1 X93.48 Y192.54 F4200
G1 X93.48 Y192.54 F4200
G1 X93.66 Y192.9 F4200
G1 X93.66 Y192.9 F4200
G1 X93.66 Y193.26 F4200
G1 X93.66 Y193.26 F4200
G1 X93.48 Y193.62 F4200
G1 X93.48 Y193.62 F4200
G1 X93.12 Y193.8 F4200
G1 X93.12 Y193.8 F4200
G1 X92.94 Y193.62 F4200
G1 X92.94 Y193.62 F4200
G1 X92.94 Y193.26 F4200
G1 X92.94 Y193.26 F4200
G1 X93.12 Y192.9 F4200
G1 X93.12 Y192.9 F4200
G1 X93.48 Y192.72 F4200
G1 X93.48 Y192.72 F4200
G1 X94.02 Y192.72 F4200
G1 X94.02 Y192.72 F4200
G1 X94.38 Y192.9 F4200
G1 X94.38 Y192.9 F4200
G1 X94.56 Y193.08 F4200
G0 Z4 F7200
G0 X95.1 Y193.8 F7200
G0 Z0.2 F7200
G1 X94.74 Y193.44 F4200
G1 X94.74 Y193.44 F4200
G1 X94.56 Y192.9 F4200
G1 X94.56 Y192.9 F4200
G1 X94.56 Y192.54 F4200
G1 X94.56 Y192.54 F4200
G1 X94.74 Y192.18 F4200
G1 X94.74 Y192.18 F4200
G1 X95.1 Y192.18 F4200
G1 X95.1 Y192.18 F4200
G1 X95.46 Y192.36 F4200
G1 X95.46 Y192.36 F4200
G1 X95.82 Y192.72 F4200
G0 Z4 F7200
G0 X96.18 Y193.8 F7200
G0 Z0.2 F7200
G1 X95.82 Y192.72 F4200
G1 X95.82 Y192.72 F4200
G1 X95.82 Y192.36 F4200
G1 X95.82 Y192.36 F4200
G1 X96 Y192.18 F4200
G1 X96 Y192.18 F4200
G1 X96.36 Y192.18 F4200
G1 X96.36 Y192.18 F4200
G1 X96.72 Y192.36 F4200
G1 X96.72 Y192.36 F4200
G1 X97.08 Y192.72 F4200
G1 X97.08 Y192.72 F4200
G1 X97.26 Y193.26 F4200
G1 X97.26 Y193.26 F4200
G1 X97.26 Y193.8 F4200
G1 X97.26 Y193.8 F4200
G1 X97.44 Y193.08 F4200
G1 X97.44 Y193.08 F4200
G1 X97.62 Y192.9 F4200
G1 X97.62 Y192.9 F4200
G1 X97.98 Y192.9 F4200
G1 X97.98 Y192.9 F4200
G1 X98.34 Y193.08 F4200
G0 Z4 F7200
G0 X98.52 Y192.54 F7200
G0 Z0.2 F7200
G1 X98.88 Y192.72 F4200
G1 X98.88 Y192.72 F4200
G1 X99.06 Y192.9 F4200
G1 X99.06 Y192.9 F4200
G1 X99.24 Y193.26 F4200
G1 X99.24 Y193.26 F4200
G1 X99.24 Y193.62 F4200
G1 X99.24 Y193.62 F4200
G1 X99.06 Y193.8 F4200
G1 X99.06 Y193.8 F4200
G1 X98.88 Y193.8 F4200
G1 X98.88 Y193.8 F4200
G1 X98.52 Y193.62 F4200
G1 X98.52 Y193.62 F4200
G1 X98.34 Y193.26 F4200
G1 X98.34 Y193.26 F4200
G1 X98.34 Y192.72 F4200
G1 X98.34 Y192.72 F4200
G1 X98.52 Y192.36 F4200
G1 X98.52 Y192.36 F4200
G1 X98.88 Y192.18 F4200
G1 X98.88 Y192.18 F4200
G1 X99.24 Y192.18 F4200
G1 X99.24 Y192.18 F4200
G1 X99.6 Y192.36 F4200
G1 X99.6 Y192.36 F4200
G1 X99.78 Y192.54 F4200
G1 X99.78 Y192.54 F4200
G1 X100.14 Y193.08 F4200
G1 X100.14 Y193.08 F4200
G1 X100.5 Y193.62 F4200
G1 X100.5 Y193.62 F4200
G1 X100.68 Y193.98 F4200
G1 X100.68 Y193.98 F4200
G1 X100.68 Y193.62 F4200
G1 X100.68 Y193.62 F4200
G1 X101.22 Y193.62 F4200
G1 X101.22 Y193.62 F4200
G1 X101.4 Y193.44 F4200
G1 X101.4 Y193.44 F4200
G1 X101.4 Y193.08 F4200
G1 X101.4 Y193.08 F4200
G1 X101.22 Y192.54 F4200
G1 X101.22 Y192.54 F4200
G1 X101.22 Y192.36 F4200
G1 X101.22 Y192.36 F4200
G1 X101.4 Y192.18 F4200
G1 X101.4 Y192.18 F4200
G1 X101.58 Y192.18 F4200
G1 X101.58 Y192.18 F4200
G1 X101.94 Y192.36 F4200
G1 X101.94 Y192.36 F4200
G1 X102.12 Y192.54 F4200
G1 X102.12 Y192.54 F4200
G1 X102.48 Y193.08 F4200
G1 X102.48 Y193.08 F4200
G1 X102.84 Y193.62 F4200
G1 X102.84 Y193.62 F4200
G1 X103.02 Y193.98 F4200
G1 X103.02 Y193.98 F4200
G1 X103.02 Y193.62 F4200
G1 X103.02 Y193.62 F4200
G1 X103.38 Y193.08 F4200
G1 X103.38 Y193.08 F4200
G1 X103.56 Y192.72 F4200
G1 X103.56 Y192.72 F4200
G1 X103.56 Y192.36 F4200
G1 X103.56 Y192.36 F4200
G1 X103.2 Y192.18 F4200
G0 Z4 F7200
G0 X102.48 Y192.36 F7200
G0 Z0.2 F7200
G1 X102.84 Y192.18 F4200
G1 X102.84 Y192.18 F4200
G1 X103.56 Y192.18 F4200
G1 X103.56 Y192.18 F4200
G1 X103.92 Y192.36 F4200
G1 X103.92 Y192.36 F4200
G1 X104.1 Y192.54 F4200
G1 X104.1 Y192.54 F4200
G1 X104.46 Y193.08 F4200
G0 Z4 F7200
G0 X108.96 Y193.26 F7200
G0 Z0.2 F7200
G1 X108.78 Y193.62 F4200
G1 X108.78 Y193.62 F4200
G1 X108.42 Y193.8 F4200
G1 X108.42 Y193.8 F4200
G1 X108.06 Y193.8 F4200
G1 X108.06 Y193.8 F4200
G1 X107.7 Y193.62 F4200
G1 X107.7 Y193.62 F4200
G1 X107.52 Y193.44 F4200
G1 X107.52 Y193.44 F4200
G1 X107.34 Y193.08 F4200
G1 X107.34 Y193.08 F4200
G1 X107.34 Y192.72 F4200
G1 X107.34 Y192.72 F4200
G1 X107.52 Y192.36 F4200
G1 X107.52 Y192.36 F4200
G1 X107.88 Y192.18 F4200
G1 X107.88 Y192.18 F4200
G1 X108.24 Y192.18 F4200
G1 X108.24 Y192.18 F4200
G1 X108.6 Y192.36 F4200
G1 X108.6 Y192.36 F4200
G1 X108.78 Y192.72 F4200
G1 X108.78 Y192.72 F4200
G1 X109.14 Y193.8 F4200
G1 X109.14 Y193.8 F4200
G1 X108.96 Y192.9 F4200
G1 X108.96 Y192.9 F4200
G1 X108.96 Y192.36 F4200
G1 X108.96 Y192.36 F4200
G1 X109.14 Y192.18 F4200
G1 X109.14 Y192.18 F4200
G1 X109.32 Y192.18 F4200
G1 X109.32 Y192.18 F4200
G1 X109.68 Y192.36 F4200
G1 X109.68 Y192.36 F4200
G1 X109.86 Y192.54 F4200
G1 X109.86 Y192.54 F4200
G1 X110.22 Y193.08 F4200
G1 X110.22 Y193.08 F4200
G1 X110.58 Y193.62 F4200
G1 X110.58 Y193.62 F4200
G1 X110.94 Y193.8 F4200
G1 X110.94 Y193.8 F4200
G1 X111.12 Y193.62 F4200
G1 X111.12 Y193.62 F4200
G1 X111.12 Y193.44 F4200
G1 X111.12 Y193.44 F4200
G1 X110.94 Y192.72 F4200
G1 X110.94 Y192.72 F4200
G1 X110.76 Y192.18 F4200
G0 Z4 F7200
G0 X110.94 Y192.72 F7200
G0 Z0.2 F7200
G1 X111.12 Y193.08 F4200
G1 X111.12 Y193.08 F4200
G1 X111.48 Y193.62 F4200
G1 X111.48 Y193.62 F4200
G1 X111.84 Y193.8 F4200
G1 X111.84 Y193.8 F4200
G1 X112.2 Y193.8 F4200
G1 X112.2 Y193.8 F4200
G1 X112.38 Y193.62 F4200
G1 X112.38 Y193.62 F4200
G1 X112.38 Y193.26 F4200
G1 X112.38 Y193.26 F4200
G1 X112.2 Y192.72 F4200
G1 X112.2 Y192.72 F4200
G1 X112.2 Y192.36 F4200
G1 X112.2 Y192.36 F4200
G1 X112.38 Y192.18 F4200
G1 X112.38 Y192.18 F4200
G1 X112.56 Y192.18 F4200
G1 X112.56 Y192.18 F4200
G1 X112.92 Y192.36 F4200
G1 X112.92 Y192.36 F4200
G1 X113.1 Y192.54 F4200
G1 X113.1 Y192.54 F4200
G1 X113.46 Y193.08 F4200
G0 Z4 F7200
G0 X115.08 Y193.26 F7200
G0 Z0.2 F7200
G1 X114.9 Y193.62 F4200
G1 X114.9 Y193.62 F4200
G1 X114.54 Y193.8 F4200
G1 X114.54 Y193.8 F4200
G1 X114.18 Y193.8 F4200
G1 X114.18 Y193.8 F4200
G1 X113.82 Y193.62 F4200
G1 X113.82 Y193.62 F4200
G1 X113.64 Y193.44 F4200
G1 X113.64 Y193.44 F4200
G1 X113.46 Y193.08 F4200
G1 X113.46 Y193.08 F4200
G1 X113.46 Y192.72 F4200
G1 X113.46 Y192.72 F4200
G1 X113.64 Y192.36 F4200
G1 X113.64 Y192.36 F4200
G1 X114 Y192.18 F4200
G1 X114 Y192.18 F4200
G1 X114.36 Y192.18 F4200
G1 X114.36 Y192.18 F4200
G1 X114.72 Y192.36 F4200
G1 X114.72 Y192.36 F4200
G1 X114.9 Y192.72 F4200
G1 X114.9 Y192.72 F4200
G1 X115.98 Y195.96 F4200
G0 Z4 F7200
G0 X115.26 Y193.8 F7200
G0 Z0.2 F7200
G1 X115.08 Y192.9 F4200
G1 X115.08 Y192.9 F4200
G1 X115.08 Y192.36 F4200
G1 X115.08 Y192.36 F4200
G1 X115.26 Y192.18 F4200
G1 X115.26 Y192.18 F4200
G1 X115.44 Y192.18 F4200
G1 X115.44 Y192.18 F4200
G1 X115.8 Y192.36 F4200
G1 X115.8 Y192.36 F4200
G1 X115.98 Y192.54 F4200
G1 X115.98 Y192.54 F4200
G1 X116.34 Y193.08 F4200
G0 Z4 F7200
G0 X119.76 Y193.8 F7200
G0 Z0.2 F7200
G1 X119.4 Y193.44 F4200
G1 X119.4 Y193.44 F4200
G1 X119.22 Y192.9 F4200
G1 X119.22 Y192.9 F4200
G1 X119.22 Y192.54 F4200
G1 X119.22 Y192.54 F4200
G1 X119.4 Y192.18 F4200
G1 X119.4 Y192.18 F4200
G1 X119.76 Y192.18 F4200
G1 X119.76 Y192.18 F4200
G1 X120.12 Y192.36 F4200
G1 X120.12 Y192.36 F4200
G1 X120.48 Y192.72 F4200
G0 Z4 F7200
G0 X120.84 Y193.8 F7200
G0 Z0.2 F7200
G1 X120.48 Y192.72 F4200
G1 X120.48 Y192.72 F4200
G1 X120.48 Y192.36 F4200
G1 X120.48 Y192.36 F4200
G1 X120.66 Y192.18 F4200
G1 X120.66 Y192.18 F4200
G1 X121.02 Y192.18 F4200
G1 X121.02 Y192.18 F4200
G1 X121.38 Y192.36 F4200
G1 X121.38 Y192.36 F4200
G1 X121.74 Y192.72 F4200
G1 X121.74 Y192.72 F4200
G1 X121.92 Y193.26 F4200
G1 X121.92 Y193.26 F4200
G1 X121.92 Y193.8 F4200
G1 X121.92 Y193.8 F4200
G1 X122.1 Y193.08 F4200
G1 X122.1 Y193.08 F4200
G1 X122.28 Y192.9 F4200
G1 X122.28 Y192.9 F4200
G1 X122.64 Y192.9 F4200
G1 X122.64 Y192.9 F4200
G1 X123 Y193.08 F4200
G0 Z4 F7200
G0 X124.62 Y193.26 F7200
G0 Z0.2 F7200
G1 X124.44 Y193.62 F4200
G1 X124.44 Y193.62 F4200
G1 X124.08 Y193.8 F4200
G1 X124.08 Y193.8 F4200
G1 X123.72 Y193.8 F4200
G1 X123.72 Y193.8 F4200
G1 X123.36 Y193.62 F4200
G1 X123.36 Y193.62 F4200
G1 X123.18 Y193.44 F4200
G1 X123.18 Y193.44 F4200
G1 X123 Y193.08 F4200
G1 X123 Y193.08 F4200
G1 X123 Y192.72 F4200
G1 X123 Y192.72 F4200
G1 X123.18 Y192.36 F4200
G1 X123.18 Y192.36 F4200
G1 X123.54 Y192.18 F4200
G1 X123.54 Y192.18 F4200
G1 X123.9 Y192.18 F4200
G1 X123.9 Y192.18 F4200
G1 X124.26 Y192.36 F4200
G1 X124.26 Y192.36 F4200
G1 X124.44 Y192.72 F4200
G1 X124.44 Y192.72 F4200
G1 X124.8 Y193.8 F4200
G1 X124.8 Y193.8 F4200
G1 X124.62 Y192.9 F4200
G1 X124.62 Y192.9 F4200
G1 X124.62 Y192.36 F4200
G1 X124.62 Y192.36 F4200
G1 X124.8 Y192.18 F4200
G1 X124.8 Y192.18 F4200
G1 X124.98 Y192.18 F4200
G1 X124.98 Y192.18 F4200
G1 X125.34 Y192.36 F4200
G1 X125.34 Y192.36 F4200
G1 X125.52 Y192.54 F4200
G1 X125.52 Y192.54 F4200
G1 X125.88 Y193.08 F4200
G1 X125.88 Y193.08 F4200
G1 X126.24 Y193.62 F4200
G1 X126.24 Y193.62 F4200
G1 X126.42 Y193.98 F4200
G1 X126.42 Y193.98 F4200
G1 X126.42 Y193.62 F4200
G1 X126.42 Y193.62 F4200
G1 X126.96 Y193.62 F4200
G1 X126.96 Y193.62 F4200
G1 X127.14 Y193.44 F4200
G1 X127.14 Y193.44 F4200
G1 X127.14 Y193.08 F4200
G1 X127.14 Y193.08 F4200
G1 X126.96 Y192.54 F4200
G1 X126.96 Y192.54 F4200
G1 X126.96 Y192.36 F4200
G1 X126.96 Y192.36 F4200
G1 X127.14 Y192.18 F4200
G1 X127.14 Y192.18 F4200
G1 X127.32 Y192.18 F4200
G1 X127.32 Y192.18 F4200
G1 X127.68 Y192.36 F4200
G1 X127.68 Y192.36 F4200
G1 X127.86 Y192.54 F4200
G1 X127.86 Y192.54 F4200
G1 X128.22 Y193.08 F4200
G1 X128.22 Y193.08 F4200
G1 X128.58 Y193.62 F4200
G1 X128.58 Y193.62 F4200
G1 X128.94 Y193.8 F4200
G1 X128.94 Y193.8 F4200
G1 X129.12 Y193.62 F4200
G1 X129.12 Y193.62 F4200
G1 X129.12 Y193.44 F4200
G1 X129.12 Y193.44 F4200
G1 X128.94 Y192.72 F4200
G1 X128.94 Y192.72 F4200
G1 X128.76 Y192.18 F4200
G0 Z4 F7200
G0 X128.94 Y192.72 F7200
G0 Z0.2 F7200
G1 X129.12 Y193.08 F4200
G1 X129.12 Y193.08 F4200
G1 X129.48 Y193.62 F4200
G1 X129.48 Y193.62 F4200
G1 X129.84 Y193.8 F4200
G1 X129.84 Y193.8 F4200
G1 X130.2 Y193.8 F4200
G1 X130.2 Y193.8 F4200
G1 X130.38 Y193.62 F4200
G1 X130.38 Y193.62 F4200
G1 X130.38 Y193.44 F4200
G1 X130.38 Y193.44 F4200
G1 X130.2 Y192.72 F4200
G1 X130.2 Y192.72 F4200
G1 X130.02 Y192.18 F4200
G0 Z4 F7200
G0 X130.2 Y192.72 F7200
G0 Z0.2 F7200
G1 X130.38 Y193.08 F4200
G1 X130.38 Y193.08 F4200
G1 X130.74 Y193.62 F4200
G1 X130.74 Y193.62 F4200
G1 X131.1 Y193.8 F4200
G1 X131.1 Y193.8 F4200
G1 X131.46 Y193.8 F4200
G1 X131.46 Y193.8 F4200
G1 X131.64 Y193.62 F4200
G1 X131.64 Y193.62 F4200
G1 X131.64 Y193.26 F4200
G1 X131.64 Y193.26 F4200
G1 X131.46 Y192.72 F4200
G1 X131.46 Y192.72 F4200
G1 X131.46 Y192.36 F4200
G1 X131.46 Y192.36 F4200
G1 X131.64 Y192.18 F4200
G1 X131.64 Y192.18 F4200
G1 X131.82 Y192.18 F4200
G1 X131.82 Y192.18 F4200
G1 X132.18 Y192.36 F4200
G1 X132.18 Y192.36 F4200
G1 X132.36 Y192.54 F4200
G1 X132.36 Y192.54 F4200
G1 X132.72 Y193.08 F4200
G0 Z4 F7200
G0 X135.6 Y193.08 F7200
G0 Z0.2 F7200
G1 X135.96 Y193.62 F4200
G1 X135.96 Y193.62 F4200
G1 X136.14 Y193.98 F4200
G1 X136.14 Y193.98 F4200
G1 X136.14 Y193.62 F4200
G1 X136.14 Y193.62 F4200
G1 X136.5 Y193.08 F4200
G1 X136.5 Y193.08 F4200
G1 X136.68 Y192.72 F4200
G1 X136.68 Y192.72 F4200
G1 X136.68 Y192.36 F4200
G1 X136.68 Y192.36 F4200
G1 X136.32 Y192.18 F4200
G0 Z4 F7200
G0 X135.6 Y192.36 F7200
G0 Z0.2 F7200
G1 X135.96 Y192.18 F4200
G1 X135.96 Y192.18 F4200
G1 X136.68 Y192.18 F4200
G1 X136.68 Y192.18 F4200
G1 X137.04 Y192.36 F4200
G1 X137.04 Y192.36 F4200
G1 X137.22 Y192.54 F4200
G1 X137.22 Y192.54 F4200
G1 X137.58 Y193.08 F4200
G1 X137.58 Y193.08 F4200
G1 X137.94 Y193.8 F4200
G1 X137.94 Y193.8 F4200
G1 X137.58 Y192.72 F4200
G1 X137.58 Y192.72 F4200
G1 X137.58 Y192.36 F4200
G1 X137.58 Y192.36 F4200
G1 X137.76 Y192.18 F4200
G1 X137.76 Y192.18 F4200
G1 X138.12 Y192.18 F4200
G1 X138.12 Y192.18 F4200
G1 X138.48 Y192.36 F4200
G1 X138.48 Y192.36 F4200
G1 X138.84 Y192.72 F4200
G1 X138.84 Y192.72 F4200
G1 X139.2 Y193.26 F4200
G0 Z4 F7200
G0 X139.38 Y193.8 F7200
G0 Z0.2 F7200
G1 X139.02 Y192.72 F4200
G1 X139.02 Y192.72 F4200
G1 X139.02 Y192.36 F4200
G1 X139.02 Y192.36 F4200
G1 X139.2 Y192.18 F4200
G1 X139.2 Y192.18 F4200
G1 X139.38 Y192.18 F4200
G1 X139.38 Y192.18 F4200
G1 X139.74 Y192.36 F4200
G1 X139.74 Y192.36 F4200
G1 X139.92 Y192.54 F4200
G1 X139.92 Y192.54 F4200
G1 X140.28 Y193.08 F4200
G1 X140.28 Y193.08 F4200
G1 X140.64 Y193.62 F4200
G1 X140.64 Y193.62 F4200
G1 X141 Y193.8 F4200
G1 X141 Y193.8 F4200
G1 X141.18 Y193.62 F4200
G1 X141.18 Y193.62 F4200
G1 X141.18 Y193.44 F4200
G1 X141.18 Y193.44 F4200
G1 X141 Y192.72 F4200
G1 X141 Y192.72 F4200
G1 X140.82 Y192.18 F4200
G0 Z4 F7200
G0 X141 Y192.72 F7200
G0 Z0.2 F7200
G1 X141.18 Y193.08 F4200
G1 X141.18 Y193.08 F4200
G1 X141.54 Y193.62 F4200
G1 X141.54 Y193.62 F4200
G1 X141.9 Y193.8 F4200
G1 X141.9 Y193.8 F4200
G1 X142.26 Y193.8 F4200
G1 X142.26 Y193.8 F4200
G1 X142.44 Y193.62 F4200
G1 X142.44 Y193.62 F4200
G1 X142.44 Y193.26 F4200
G1 X142.44 Y193.26 F4200
G1 X142.26 Y192.72 F4200
G1 X142.26 Y192.72 F4200
G1 X142.26 Y192.36 F4200
G1 X142.26 Y192.36 F4200
G1 X142.44 Y192.18 F4200
G1 X142.44 Y192.18 F4200
G1 X142.62 Y192.18 F4200
G1 X142.62 Y192.18 F4200
G1 X142.98 Y192.36 F4200
G1 X142.98 Y192.36 F4200
G1 X143.16 Y192.54 F4200
G1 X143.16 Y192.54 F4200
G1 X143.52 Y193.08 F4200
G1 X143.52 Y193.08 F4200
G1 X143.88 Y193.62 F4200
G1 X143.88 Y193.62 F4200
G1 X144.06 Y193.98 F4200
G1 X144.06 Y193.98 F4200
G1 X144.06 Y193.62 F4200
G1 X144.06 Y193.62 F4200
G1 X144.42 Y193.08 F4200
G1 X144.42 Y193.08 F4200
G1 X144.6 Y192.72 F4200
G1 X144.6 Y192.72 F4200
G1 X144.6 Y192.36 F4200
G1 X144.6 Y192.36 F4200
G1 X144.24 Y192.18 F4200
G0 Z4 F7200
G0 X143.52 Y192.36 F7200
G0 Z0.2 F7200
G1 X143.88 Y192.18 F4200
G1 X143.88 Y192.18 F4200
G1 X144.6 Y192.18 F4200
G1 X144.6 Y192.18 F4200
G1 X144.96 Y192.36 F4200
G1 X144.96 Y192.36 F4200
G1 X145.14 Y192.54 F4200
G1 X145.14 Y192.54 F4200
G1 X145.5 Y193.08 F4200
G1 X145.5 Y193.08 F4200
G1 X145.86 Y193.62 F4200
G1 X145.86 Y193.62 F4200
G1 X146.4 Y194.52 F4200
G1 X146.4 Y194.52 F4200
G1 X146.58 Y194.88 F4200
G1 X146.58 Y194.88 F4200
G1 X146.76 Y195.42 F4200
G1 X146.76 Y195.42 F4200
G1 X146.76 Y195.78 F4200
G1 X146.76 Y195.78 F4200
G1 X146.58 Y195.96 F4200
G1 X146.58 Y195.96 F4200
G1 X146.22 Y195.78 F4200
G1 X146.22 Y195.78 F4200
G1 X146.04 Y195.42 F4200
G1 X146.04 Y195.42 F4200
G1 X145.86 Y194.7 F4200
G1 X145.86 Y194.7 F4200
G1 X145.68 Y193.62 F4200
G1 X145.68 Y193.62 F4200
G1 X145.5 Y192.18 F4200
G1 X145.5 Y192.18 F4200
G1 X145.68 Y192.72 F4200
G1 X145.68 Y192.72 F4200
G1 X145.86 Y193.08 F4200
G1 X145.86 Y193.08 F4200
G1 X146.22 Y193.62 F4200
G1 X146.22 Y193.62 F4200
G1 X146.58 Y193.8 F4200
G1 X146.58 Y193.8 F4200
G1 X146.94 Y193.8 F4200
G1 X146.94 Y193.8 F4200
G1 X147.12 Y193.62 F4200
G1 X147.12 Y193.62 F4200
G1 X147.12 Y193.26 F4200
G1 X147.12 Y193.26 F4200
G1 X146.94 Y192.72 F4200
G1 X146.94 Y192.72 F4200
G1 X146.94 Y192.36 F4200
G1 X146.94 Y192.36 F4200
G1 X147.12 Y192.18 F4200
G1 X147.12 Y192.18 F4200
G1 X147.3 Y192.18 F4200
G1 X147.3 Y192.18 F4200
G1 X147.66 Y192.36 F4200
G1 X147.66 Y192.36 F4200
G1 X147.84 Y192.54 F4200
G1 X147.84 Y192.54 F4200
G1 X148.2 Y193.08 F4200
G0 Z4 F7200
G0 X148.74 Y194.7 F7200
G0 Z0.2 F7200
G1 X148.74 Y194.52 F4200
G1 X148.74 Y194.52 F4200
G1 X148.92 Y194.52 F4200
G1 X148.92 Y194.52 F4200
G1 X148.92 Y194.7 F4200
G1 X148.92 Y194.7 F4200
G1 X148.74 Y194.7 F4200
G0 Z4 F7200
G0 X148.2 Y193.08 F7200
G0 Z0.2 F7200
G1 X148.56 Y193.8 F4200
G1 X148.56 Y193.8 F4200
G1 X148.2 Y192.72 F4200
G1 X148.2 Y192.72 F4200
G1 X148.2 Y192.36 F4200
G1 X148.2 Y192.36 F4200
G1 X148.38 Y192.18 F4200
G1 X148.38 Y192.18 F4200
G1 X148.56 Y192.18 F4200
G1 X148.56 Y192.18 F4200
G1 X148.92 Y192.36 F4200
G1 X148.92 Y192.36 F4200
G1 X149.1 Y192.54 F4200
G1 X149.1 Y192.54 F4200
G1 X149.46 Y193.08 F4200
G1 X149.46 Y193.08 F4200
G1 X149.82 Y193.62 F4200
G1 X149.82 Y193.62 F4200
G1 X150.18 Y193.8 F4200
G1 X150.18 Y193.8 F4200
G1 X150.36 Y193.62 F4200
G1 X150.36 Y193.62 F4200
G1 X150.36 Y193.44 F4200
G1 X150.36 Y193.44 F4200
G1 X150.18 Y192.72 F4200
G1 X150.18 Y192.72 F4200
G1 X150 Y192.18 F4200
G0 Z4 F7200
G0 X150.18 Y192.72 F7200
G0 Z0.2 F7200
G1 X150.36 Y193.08 F4200
G1 X150.36 Y193.08 F4200
G1 X150.72 Y193.62 F4200
G1 X150.72 Y193.62 F4200
G1 X151.08 Y193.8 F4200
G1 X151.08 Y193.8 F4200
G1 X151.44 Y193.8 F4200
G1 X151.44 Y193.8 F4200
G1 X151.62 Y193.62 F4200
G1 X151.62 Y193.62 F4200
G1 X151.62 Y193.26 F4200
G1 X151.62 Y193.26 F4200
G1 X151.44 Y192.72 F4200
G1 X151.44 Y192.72 F4200
G1 X151.44 Y192.36 F4200
G1 X151.44 Y192.36 F4200
G1 X151.62 Y192.18 F4200
G1 X151.62 Y192.18 F4200
G1 X151.8 Y192.18 F4200
G1 X151.8 Y192.18 F4200
G1 X152.16 Y192.36 F4200
G1 X152.16 Y192.36 F4200
G1 X152.34 Y192.54 F4200
G1 X152.34 Y192.54 F4200
G1 X152.7 Y193.08 F4200
G0 Z4 F7200
G0 X152.88 Y192.54 F7200
G0 Z0.2 F7200
G1 X153.24 Y192.72 F4200
G1 X153.24 Y192.72 F4200
G1 X153.42 Y192.9 F4200
G1 X153.42 Y192.9 F4200
G1 X153.6 Y193.26 F4200
G1 X153.6 Y193.26 F4200
G1 X153.6 Y193.62 F4200
G1 X153.6 Y193.62 F4200
G1 X153.42 Y193.8 F4200
G1 X153.42 Y193.8 F4200
G1 X153.24 Y193.8 F4200
G1 X153.24 Y193.8 F4200
G1 X152.88 Y193.62 F4200
G1 X152.88 Y193.62 F4200
G1 X152.7 Y193.26 F4200
G1 X152.7 Y193.26 F4200
G1 X152.7 Y192.72 F4200
G1 X152.7 Y192.72 F4200
G1 X152.88 Y192.36 F4200
G1 X152.88 Y192.36 F4200
G1 X153.24 Y192.18 F4200
G1 X153.24 Y192.18 F4200
G1 X153.6 Y192.18 F4200
G1 X153.6 Y192.18 F4200
G1 X153.96 Y192.36 F4200
G1 X153.96 Y192.36 F4200
G1 X154.14 Y192.54 F4200
G1 X154.14 Y192.54 F4200
G1 X154.5 Y193.08 F4200
G0 Z4 F7200
G0 X154.86 Y192.9 F7200
G0 Z0.2 F7200
G1 X154.68 Y192.72 F4200
G1 X154.68 Y192.72 F4200
G1 X154.5 Y192.9 F4200
G1 X154.5 Y192.9 F4200
G1 X154.68 Y193.08 F4200
G1 X154.68 Y193.08 F4200
G1 X154.86 Y192.9 F4200
G1 X154.86 Y192.9 F4200
G1 X154.86 Y192.54 F4200
G1 X154.86 Y192.54 F4200
G1 X154.5 Y192.18 F4200
G0 Z4 F7200
G0 X157.74 Y193.08 F7200
G0 Z0.2 F7200
G1 X158.1 Y193.62 F4200
G1 X158.1 Y193.62 F4200
G1 X158.46 Y194.34 F4200
G0 Z4 F7200
G0 X159 Y195.96 F7200
G0 Z0.2 F7200
G1 X157.92 Y192.72 F4200
G1 X157.92 Y192.72 F4200
G1 X157.92 Y192.36 F4200
G1 X157.92 Y192.36 F4200
G1 X158.1 Y192.18 F4200
G1 X158.1 Y192.18 F4200
G1 X158.46 Y192.18 F4200
G1 X158.46 Y192.18 F4200
G1 X158.82 Y192.36 F4200
G1 X158.82 Y192.36 F4200
G1 X159 Y192.54 F4200
G1 X159 Y192.54 F4200
G1 X159.36 Y193.08 F4200
G0 Z4 F7200
G0 X157.92 Y194.52 F7200
G0 Z0.2 F7200
G1 X159.18 Y194.52 F4200
G0 Z4 F7200
G0 X159.36 Y193.08 F7200
G0 Z0.2 F7200
G1 X159.72 Y193.62 F4200
G1 X159.72 Y193.62 F4200
G1 X160.26 Y194.52 F4200
G1 X160.26 Y194.52 F4200
G1 X160.44 Y194.88 F4200
G1 X160.44 Y194.88 F4200
G1 X160.62 Y195.42 F4200
G1 X160.62 Y195.42 F4200
G1 X160.62 Y195.78 F4200
G1 X160.62 Y195.78 F4200
G1 X160.44 Y195.96 F4200
G1 X160.44 Y195.96 F4200
G1 X160.08 Y195.78 F4200
G1 X160.08 Y195.78 F4200
G1 X159.9 Y195.42 F4200
G1 X159.9 Y195.42 F4200
G1 X159.72 Y194.7 F4200
G1 X159.72 Y194.7 F4200
G1 X159.54 Y193.62 F4200
G1 X159.54 Y193.62 F4200
G1 X159.36 Y192.18 F4200
G1 X159.36 Y192.18 F4200
G1 X159.54 Y192.72 F4200
G1 X159.54 Y192.72 F4200
G1 X159.72 Y193.08 F4200
G1 X159.72 Y193.08 F4200
G1 X160.08 Y193.62 F4200
G1 X160.08 Y193.62 F4200
G1 X160.44 Y193.8 F4200
G1 X160.44 Y193.8 F4200
G1 X160.8 Y193.8 F4200
G1 X160.8 Y193.8 F4200
G1 X160.98 Y193.62 F4200
G1 X160.98 Y193.62 F4200
G1 X160.98 Y193.26 F4200
G1 X160.98 Y193.26 F4200
G1 X160.8 Y192.72 F4200
G1 X160.8 Y192.72 F4200
G1 X160.8 Y192.36 F4200
G1 X160.8 Y192.36 F4200
G1 X160.98 Y192.18 F4200
G1 X160.98 Y192.18 F4200
G1 X161.16 Y192.18 F4200
G1 X161.16 Y192.18 F4200
G1 X161.52 Y192.36 F4200
G1 X161.52 Y192.36 F4200
G1 X161.7 Y192.54 F4200
G1 X161.7 Y192.54 F4200
G1 X162.06 Y193.08 F4200
G0 Z4 F7200
G0 X162.24 Y192.54 F7200
G0 Z0.2 F7200
G1 X162.6 Y192.72 F4200
G1 X162.6 Y192.72 F4200
G1 X162.78 Y192.9 F4200
G1 X162.78 Y192.9 F4200
G1 X162.96 Y193.26 F4200
G1 X162.96 Y193.26 F4200
G1 X162.96 Y193.62 F4200
G1 X162.96 Y193.62 F4200
G1 X162.78 Y193.8 F4200
G1 X162.78 Y193.8 F4200
G1 X162.6 Y193.8 F4200
G1 X162.6 Y193.8 F4200
G1 X162.24 Y193.62 F4200
G1 X162.24 Y193.62 F4200
G1 X162.06 Y193.26 F4200
G1 X162.06 Y193.26 F4200
G1 X162.06 Y192.72 F4200
G1 X162.06 Y192.72 F4200
G1 X162.24 Y192.36 F4200
G1 X162.24 Y192.36 F4200
G1 X162.6 Y192.18 F4200
G1 X162.6 Y192.18 F4200
G1 X162.96 Y192.18 F4200
G1 X162.96 Y192.18 F4200
G1 X163.32 Y192.36 F4200
G1 X163.32 Y192.36 F4200
G1 X163.5 Y192.54 F4200
G1 X163.5 Y192.54 F4200
G1 X163.86 Y193.08 F4200
G0 Z4 F7200
G0 X167.28 Y194.7 F7200
G0 Z0.2 F7200
G1 X166.92 Y194.88 F4200
G1 X166.92 Y194.88 F4200
G1 X166.74 Y195.24 F4200
G1 X166.74 Y195.24 F4200
G1 X166.74 Y195.42 F4200
G1 X166.74 Y195.42 F4200
G1 X166.92 Y195.78 F4200
G1 X166.92 Y195.78 F4200
G1 X167.28 Y195.96 F4200
G1 X167.28 Y195.96 F4200
G1 X167.46 Y195.96 F4200
G1 X167.46 Y195.96 F4200
G1 X167.82 Y195.78 F4200
G1 X167.82 Y195.78 F4200
G1 X168 Y195.42 F4200
G1 X168 Y195.42 F4200
G1 X168 Y195.06 F4200
G1 X168 Y195.06 F4200
G1 X167.82 Y194.16 F4200
G1 X167.82 Y194.16 F4200
G1 X167.64 Y193.44 F4200
G1 X167.64 Y193.44 F4200
G1 X167.28 Y192.18 F4200
G0 Z4 F7200
G0 X167.64 Y193.44 F7200
G0 Z0.2 F7200
G1 X168.18 Y194.88 F4200
G1 X168.18 Y194.88 F4200
G1 X168.54 Y195.6 F4200
G1 X168.54 Y195.6 F4200
G1 X168.72 Y195.78 F4200
G1 X168.72 Y195.78 F4200
G1 X169.08 Y195.96 F4200
G1 X169.08 Y195.96 F4200
G1 X169.26 Y195.96 F4200
G1 X169.26 Y195.96 F4200
G1 X169.62 Y195.78 F4200
G1 X169.62 Y195.78 F4200
G1 X169.8 Y195.42 F4200
G1 X169.8 Y195.42 F4200
G1 X169.8 Y195.06 F4200
G1 X169.8 Y195.06 F4200
G1 X169.62 Y194.16 F4200
G1 X169.62 Y194.16 F4200
G1 X169.44 Y193.44 F4200
G1 X169.44 Y193.44 F4200
G1 X169.08 Y192.18 F4200
G0 Z4 F7200
G0 X169.44 Y193.44 F7200
G0 Z0.2 F7200
G1 X169.98 Y194.88 F4200
G1 X169.98 Y194.88 F4200
G1 X170.34 Y195.6 F4200
G1 X170.34 Y195.6 F4200
G1 X170.52 Y195.78 F4200
G1 X170.52 Y195.78 F4200
G1 X170.88 Y195.96 F4200
G1 X170.88 Y195.96 F4200
G1 X171.06 Y195.96 F4200
G1 X171.06 Y195.96 F4200
G1 X171.42 Y195.78 F4200
G1 X171.42 Y195.78 F4200
G1 X171.6 Y195.42 F4200
G1 X171.6 Y195.42 F4200
G1 X171.6 Y195.06 F4200
G1 X171.6 Y195.06 F4200
G1 X171.42 Y194.16 F4200
G1 X171.42 Y194.16 F4200
G1 X171.06 Y192.9 F4200
G1 X171.06 Y192.9 F4200
G1 X171.06 Y192.36 F4200
G1 X171.06 Y192.36 F4200
G1 X171.24 Y192.18 F4200
G1 X171.24 Y192.18 F4200
G1 X171.42 Y192.18 F4200
G1 X171.42 Y192.18 F4200
G1 X171.78 Y192.36 F4200
G1 X171.78 Y192.36 F4200
G1 X171.96 Y192.54 F4200
G1 X171.96 Y192.54 F4200
G1 X172.32 Y193.08 F4200
G0 Z4 F7200
G0 X173.94 Y193.26 F7200
G0 Z0.2 F7200
G1 X173.76 Y193.62 F4200
G1 X173.76 Y193.62 F4200
G1 X173.4 Y193.8 F4200
G1 X173.4 Y193.8 F4200
G1 X173.04 Y193.8 F4200
G1 X173.04 Y193.8 F4200
G1 X172.68 Y193.62 F4200
G1 X172.68 Y193.62 F4200
G1 X172.5 Y193.44 F4200
G1 X172.5 Y193.44 F4200
G1 X172.32 Y193.08 F4200
G1 X172.32 Y193.08 F4200
G1 X172.32 Y192.72 F4200
G1 X172.32 Y192.72 F4200
G1 X172.5 Y192.36 F4200
G1 X172.5 Y192.36 F4200
G1 X172.86 Y192.18 F4200
G1 X172.86 Y192.18 F4200
G1 X173.22 Y192.18 F4200
G1 X173.22 Y192.18 F4200
G1 X173.58 Y192.36 F4200
G1 X173.58 Y192.36 F4200
G1 X173.76 Y192.72 F4200
G1 X173.76 Y192.72 F4200
G1 X174.12 Y193.8 F4200
G1 X174.12 Y193.8 F4200
G1 X173.94 Y192.9 F4200
G1 X173.94 Y192.9 F4200
G1 X173.94 Y192.36 F4200
G1 X173.94 Y192.36 F4200
G1 X174.12 Y192.18 F4200
G1 X174.12 Y192.18 F4200
G1 X174.3 Y192.18 F4200
G1 X174.3 Y192.18 F4200
G1 X174.66 Y192.36 F4200
G1 X174.66 Y192.36 F4200
G1 X174.84 Y192.54 F4200
G1 X174.84 Y192.54 F4200
G1 X175.2 Y193.08 F4200
G1 X175.2 Y193.08 F4200
G1 X175.56 Y193.8 F4200
G1 X175.56 Y193.8 F4200
G1 X175.2 Y192.72 F4200
G1 X175.2 Y192.72 F4200
G1 X175.2 Y192.36 F4200
G1 X175.2 Y192.36 F4200
G1 X175.38 Y192.18 F4200
G1 X175.38 Y192.18 F4200
G1 X175.74 Y192.18 F4200
G1 X175.74 Y192.18 F4200
G1 X176.1 Y192.36 F4200
G1 X176.1 Y192.36 F4200
G1 X176.46 Y192.72 F4200
G1 X176.46 Y192.72 F4200
G1 X176.82 Y193.26 F4200
G0 Z4 F7200
G0 X177 Y193.8 F7200
G0 Z0.2 F7200
G1 X175.92 Y190.56 F4200
G1 X175.92 Y190.56 F4200
G1 X175.74 Y190.2 F4200
G1 X175.74 Y190.2 F4200
G1 X175.38 Y190.02 F4200
G1 X175.38 Y190.02 F4200
G1 X175.2 Y190.2 F4200
G1 X175.2 Y190.2 F4200
G1 X175.2 Y190.56 F4200
G1 X175.2 Y190.56 F4200
G1 X175.38 Y191.1 F4200
G1 X175.38 Y191.1 F4200
G1 X175.92 Y191.64 F4200
G1 X175.92 Y191.64 F4200
G1 X176.46 Y192 F4200
G1 X176.46 Y192 F4200
G1 X176.82 Y192.18 F4200
G1 X176.82 Y192.18 F4200
G1 X177.36 Y192.54 F4200
G1 X177.36 Y192.54 F4200
G1 X177.9 Y193.08 F4200
G0 Z4 F7200
G0 X180.78 Y193.08 F7200
G0 Z0.2 F7200
G1 X181.14 Y193.62 F4200
G1 X181.14 Y193.62 F4200
G1 X181.32 Y193.98 F4200
G1 X181.32 Y193.98 F4200
G1 X181.32 Y193.62 F4200
G1 X181.32 Y193.62 F4200
G1 X181.68 Y193.08 F4200
G1 X181.68 Y193.08 F4200
G1 X181.86 Y192.72 F4200
G1 X181.86 Y192.72 F4200
G1 X181.86 Y192.36 F4200
G1 X181.86 Y192.36 F4200
G1 X181.5 Y192.18 F4200
G0 Z4 F7200
G0 X180.78 Y192.36 F7200
G0 Z0.2 F7200
G1 X181.14 Y192.18 F4200
G1 X181.14 Y192.18 F4200
G1 X181.86 Y192.18 F4200
G1 X181.86 Y192.18 F4200
G1 X182.22 Y192.36 F4200
G1 X182.22 Y192.36 F4200
G1 X182.4 Y192.54 F4200
G1 X182.4 Y192.54 F4200
G1 X182.76 Y193.08 F4200
G1 X182.76 Y193.08 F4200
G1 X183.12 Y193.8 F4200
G1 X183.12 Y193.8 F4200
G1 X182.76 Y192.72 F4200
G1 X182.76 Y192.72 F4200
G1 X182.76 Y192.36 F4200
G1 X182.76 Y192.36 F4200
G1 X182.94 Y192.18 F4200
G1 X182.94 Y192.18 F4200
G1 X183.3 Y192.18 F4200
G1 X183.3 Y192.18 F4200
G1 X183.66 Y192.36 F4200
G1 X183.66 Y192.36 F4200
G1 X184.02 Y192.72 F4200
G1 X184.02 Y192.72 F4200
G1 X184.38 Y193.26 F4200
G0 Z4 F7200
G0 X184.56 Y193.8 F7200
G0 Z0.2 F7200
G1 X184.2 Y192.72 F4200
G1 X184.2 Y192.72 F4200
G1 X184.2 Y192.36 F4200
G1 X184.2 Y192.36 F4200
G1 X184.38 Y192.18 F4200
G1 X184.38 Y192.18 F4200
G1 X184.56 Y192.18 F4200
G1 X184.56 Y192.18 F4200
G1 X184.92 Y192.36 F4200
G1 X184.92 Y192.36 F4200
G1 X185.1 Y192.54 F4200
G1 X185.1 Y192.54 F4200
G1 X185.46 Y193.08 F4200
G1 X185.46 Y193.08 F4200
G1 X185.82 Y193.62 F4200
G1 X185.82 Y193.62 F4200
G1 X186.18 Y193.8 F4200
G1 X186.18 Y193.8 F4200
G1 X186.36 Y193.62 F4200
G1 X186.36 Y193.62 F4200
G1 X186.36 Y193.44 F4200
G1 X186.36 Y193.44 F4200
G1 X186.18 Y192.72 F4200
G1 X186.18 Y192.72 F4200
G1 X186 Y192.18 F4200
G0 Z4 F7200
G0 X186.18 Y192.72 F7200
G0 Z0.2 F7200
G1 X186.36 Y193.08 F4200
G1 X186.36 Y193.08 F4200
G1 X186.72 Y193.62 F4200
G1 X186.72 Y193.62 F4200
G1 X187.08 Y193.8 F4200
G1 X187.08 Y193.8 F4200
G1 X187.44 Y193.8 F4200
G1 X187.44 Y193.8 F4200
G1 X187.62 Y193.62 F4200
G1 X187.62 Y193.62 F4200
G1 X187.62 Y193.26 F4200
G1 X187.62 Y193.26 F4200
G1 X187.44 Y192.72 F4200
G1 X187.44 Y192.72 F4200
G1 X187.44 Y192.36 F4200
G1 X187.44 Y192.36 F4200
G1 X187.62 Y192.18 F4200
G1 X187.62 Y192.18 F4200
G1 X187.8 Y192.18 F4200
G1 X187.8 Y192.18 F4200
G1 X188.16 Y192.36 F4200
G1 X188.16 Y192.36 F4200
G1 X188.34 Y192.54 F4200
G1 X188.34 Y192.54 F4200
G1 X188.7 Y193.08 F4200
G0 Z4 F7200
G0 X192.84 Y193.44 F7200
G0 Z0.2 F7200
G1 X192.84 Y193.62 F4200
G1 X192.84 Y193.62 F4200
G1 X192.66 Y193.8 F4200
G1 X192.66 Y193.8 F4200
G1 X192.3 Y193.8 F4200
G1 X192.3 Y193.8 F4200
G1 X191.94 Y193.62 F4200
G1 X191.94 Y193.62 F4200
G1 X191.76 Y193.44 F4200
G1 X191.76 Y193.44 F4200
G1 X191.58 Y193.08 F4200
G1 X191.58 Y193.08 F4200
G1 X191.58 Y192.72 F4200
G1 X191.58 Y192.72 F4200
G1 X191.76 Y192.36 F4200
G1 X191.76 Y192.36 F4200
G1 X192.12 Y192.18 F4200
G1 X192.12 Y192.18 F4200
G1 X192.66 Y192.18 F4200
G1 X192.66 Y192.18 F4200
G1 X193.2 Y192.54 F4200
G1 X193.2 Y192.54 F4200
G1 X193.56 Y193.08 F4200
G0 Z4 F7200
G0 X195.18 Y193.26 F7200
G0 Z0.2 F7200
G1 X195 Y193.62 F4200
G1 X195 Y193.62 F4200
G1 X194.64 Y193.8 F4200
G1 X194.64 Y193.8 F4200
G1 X194.28 Y193.8 F4200
G1 X194.28 Y193.8 F4200
G1 X193.92 Y193.62 F4200
G1 X193.92 Y193.62 F4200
G1 X193.74 Y193.44 F4200
G1 X193.74 Y193.44 F4200
G1 X193.56 Y193.08 F4200
G1 X193.56 Y193.08 F4200
G1 X193.56 Y192.72 F4200
G1 X193.56 Y192.72 F4200
G1 X193.74 Y192.36 F4200
G1 X193.74 Y192.36 F4200
G1 X194.1 Y192.18 F4200
G1 X194.1 Y192.18 F4200
G1 X194.46 Y192.18 F4200
G1 X194.46 Y192.18 F4200
G1 X194.82 Y192.36 F4200
G1 X194.82 Y192.36 F4200
G1 X195 Y192.72 F4200
G1 X195 Y192.72 F4200
G1 X195.36 Y193.8 F4200
G1 X195.36 Y193.8 F4200
G1 X195.18 Y192.9 F4200
G1 X195.18 Y192.9 F4200
G1 X195.18 Y192.36 F4200
G1 X195.18 Y192.36 F4200
G1 X195.36 Y192.18 F4200
G1 X195.36 Y192.18 F4200
G1 X195.54 Y192.18 F4200
G1 X195.54 Y192.18 F4200
G1 X195.9 Y192.36 F4200
G1 X195.9 Y192.36 F4200
G1 X196.08 Y192.54 F4200
G1 X196.08 Y192.54 F4200
G1 X196.44 Y193.08 F4200
G1 X196.44 Y193.08 F4200
G1 X196.8 Y193.62 F4200
G1 X196.8 Y193.62 F4200
G1 X196.98 Y193.98 F4200
G1 X196.98 Y193.98 F4200
G1 X196.98 Y193.62 F4200
G1 X196.98 Y193.62 F4200
G1 X197.34 Y193.08 F4200
G1 X197.34 Y193.08 F4200
G1 X197.52 Y192.72 F4200
G1 X197.52 Y192.72 F4200
G1 X197.52 Y192.36 F4200
G1 X197.52 Y192.36 F4200
G1 X197.16 Y192.18 F4200
G0 Z4 F7200
G0 X196.44 Y192.36 F7200
G0 Z0.2 F7200
G1 X196.8 Y192.18 F4200
G1 X196.8 Y192.18 F4200
G1 X197.52 Y192.18 F4200
G1 X197.52 Y192.18 F4200
G1 X197.88 Y192.36 F4200
G1 X197.88 Y192.36 F4200
G1 X198.06 Y192.54 F4200
G1 X198.06 Y192.54 F4200
G1 X198.42 Y193.08 F4200
G1 X198.42 Y193.08 F4200
G1 X198.78 Y193.62 F4200
G1 X198.78 Y193.62 F4200
G1 X199.14 Y194.34 F4200
G0 Z4 F7200
G0 X199.68 Y195.96 F7200
G0 Z0.2 F7200
G1 X198.6 Y192.72 F4200
G1 X198.6 Y192.72 F4200
G1 X198.6 Y192.36 F4200
G1 X198.6 Y192.36 F4200
G1 X198.78 Y192.18 F4200
G1 X198.78 Y192.18 F4200
G1 X199.14 Y192.18 F4200
G1 X199.14 Y192.18 F4200
G1 X199.5 Y192.36 F4200
G1 X199.5 Y192.36 F4200
G1 X199.68 Y192.54 F4200
G1 X199.68 Y192.54 F4200
G1 X200.04 Y193.08 F4200
G0 Z4 F7200
G0 X198.6 Y194.52 F7200
G0 Z0.2 F7200
G1 X199.86 Y194.52 F4200
G0 Z4 F7200
G0 X200.04 Y193.08 F7200
G0 Z0.2 F7200
G1 X200.4 Y193.62 F4200
G1 X200.4 Y193.62 F4200
G1 X200.58 Y193.98 F4200
G1 X200.58 Y193.98 F4200
G1 X200.58 Y193.62 F4200
G1 X200.58 Y193.62 F4200
G1 X200.94 Y193.08 F4200
G1 X200.94 Y193.08 F4200
G1 X201.12 Y192.72 F4200
G1 X201.12 Y192.72 F4200
G1 X201.12 Y192.36 F4200
G1 X201.12 Y192.36 F4200
G1 X200.76 Y192.18 F4200
G0 Z4 F7200
G0 X200.04 Y192.36 F7200
G0 Z0.2 F7200
G1 X200.4 Y192.18 F4200
G1 X200.4 Y192.18 F4200
G1 X201.12 Y192.18 F4200
G1 X201.12 Y192.18 F4200
G1 X201.48 Y192.36 F4200
G1 X201.48 Y192.36 F4200
G1 X201.66 Y192.54 F4200
G1 X201.66 Y192.54 F4200
G1 X202.02 Y193.08 F4200
G0 Z4 F7200
G0 X206.52 Y193.26 F7200
G0 Z0.2 F7200
G1 X206.34 Y193.62 F4200
G1 X206.34 Y193.62 F4200
G1 X205.98 Y193.8 F4200
G1 X205.98 Y193.8 F4200
G1 X205.62 Y193.8 F4200
G1 X205.62 Y193.8 F4200
G1 X205.26 Y193.62 F4200
G1 X205.26 Y193.62 F4200
G1 X205.08 Y193.44 F4200
G1 X205.08 Y193.44 F4200
G1 X204.9 Y193.08 F4200
G1 X204.9 Y193.08 F4200
G1 X204.9 Y192.72 F4200
G1 X204.9 Y192.72 F4200
G1 X205.08 Y192.36 F4200
G1 X205.08 Y192.36 F4200
G1 X205.44 Y192.18 F4200
G1 X205.44 Y192.18 F4200
G1 X205.8 Y192.18 F4200
G1 X205.8 Y192.18 F4200
G1 X206.16 Y192.36 F4200
G1 X206.16 Y192.36 F4200
G1 X206.34 Y192.72 F4200
G1 X206.34 Y192.72 F4200
G1 X206.7 Y193.8 F4200
G1 X206.7 Y193.8 F4200
G1 X206.52 Y192.9 F4200
G1 X206.52 Y192.9 F4200
G1 X206.52 Y192.36 F4200
G1 X206.52 Y192.36 F4200
G1 X206.7 Y192.18 F4200
G1 X206.7 Y192.18 F4200
G1 X206.88 Y192.18 F4200
G1 X206.88 Y192.18 F4200
G1 X207.24 Y192.36 F4200
G1 X207.24 Y192.36 F4200
G1 X207.42 Y192.54 F4200
G1 X207.42 Y192.54 F4200
G1 X207.78 Y193.08 F4200
G0 Z4 F7200
G0 X16.62 Y186.6 F7200
G0 Z0.2 F7200
G1 X16.44 Y186.96 F4200
G1 X16.44 Y186.96 F4200
G1 X16.08 Y187.14 F4200
G1 X16.08 Y187.14 F4200
G1 X15.72 Y187.14 F4200
G1 X15.72 Y187.14 F4200
G1 X15.36 Y186.96 F4200
G1 X15.36 Y186.96 F4200
G1 X15.18 Y186.78 F4200
G1 X15.18 Y186.78 F4200
G1 X15 Y186.42 F4200
G1 X15 Y186.42 F4200
G1 X15 Y186.06 F4200
G1 X15 Y186.06 F4200
G1 X15.18 Y185.7 F4200
G1 X15.18 Y185.7 F4200
G1 X15.54 Y185.52 F4200
G1 X15.54 Y185.52 F4200
G1 X15.9 Y185.52 F4200
G1 X15.9 Y185.52 F4200
G1 X16.26 Y185.7 F4200
G1 X16.26 Y185.7 F4200
G1 X16.44 Y185.88 F4200
G0 Z4 F7200
G0 X16.8 Y187.14 F7200
G0 Z0.2 F7200
G1 X16.44 Y185.88 F4200
G1 X16.44 Y185.88 F4200
G1 X15.72 Y183.9 F4200
G1 X15.72 Y183.9 F4200
G1 X15.54 Y183.54 F4200
G1 X15.54 Y183.54 F4200
G1 X15.18 Y183.36 F4200
G1 X15.18 Y183.36 F4200
G1 X15 Y183.54 F4200
G1 X15 Y183.54 F4200
G1 X15 Y183.9 F4200
G1 X15 Y183.9 F4200
G1 X15.18 Y184.44 F4200
G1 X15.18 Y184.44 F4200
G1 X15.72 Y184.98 F4200
G1 X15.72 Y184.98 F4200
G1 X16.26 Y185.34 F4200
G1 X16.26 Y185.34 F4200
G1 X16.62 Y185.52 F4200
G1 X16.62 Y185.52 F4200
G1 X17.16 Y185.88 F4200
G1 X17.16 Y185.88 F4200
G1 X17.7 Y186.42 F4200
G0 Z4 F7200
G0 X17.88 Y185.88 F7200
G0 Z0.2 F7200
G1 X18.24 Y186.06 F4200
G1 X18.24 Y186.06 F4200
G1 X18.42 Y186.24 F4200
G1 X18.42 Y186.24 F4200
G1 X18.6 Y186.6 F4200
G1 X18.6 Y186.6 F4200
G1 X18.6 Y186.96 F4200
G1 X18.6 Y186.96 F4200
G1 X18.42 Y187.14 F4200
G1 X18.42 Y187.14 F4200
G1 X18.24 Y187.14 F4200
G1 X18.24 Y187.14 F4200
G1 X17.88 Y186.96 F4200
G1 X17.88 Y186.96 F4200
G1 X17.7 Y186.6 F4200
G1 X17.7 Y186.6 F4200
G1 X17.7 Y186.06 F4200
G1 X17.7 Y186.06 F4200
G1 X17.88 Y185.7 F4200
G1 X17.88 Y185.7 F4200
G1 X18.24 Y185.52 F4200
G1 X18.24 Y185.52 F4200
G1 X18.6 Y185.52 F4200
G1 X18.6 Y185.52 F4200
G1 X18.96 Y185.7 F4200
G1 X18.96 Y185.7 F4200
G1 X19.14 Y185.88 F4200
G1 X19.14 Y185.88 F4200
G1 X19.5 Y186.42 F4200
G1 X19.5 Y186.42 F4200
G1 X19.86 Y186.96 F4200
G1 X19.86 Y186.96 F4200
G1 X20.22 Y187.14 F4200
G1 X20.22 Y187.14 F4200
G1 X20.4 Y186.96 F4200
G1 X20.4 Y186.96 F4200
G1 X20.4 Y186.78 F4200
G1 X20.4 Y186.78 F4200
G1 X20.22 Y186.06 F4200
G1 X20.22 Y186.06 F4200
G1 X20.04 Y185.52 F4200
G0 Z4 F7200
G0 X20.22 Y186.06 F7200
G0 Z0.2 F7200
G1 X20.4 Y186.42 F4200
G1 X20.4 Y186.42 F4200
G1 X20.76 Y186.96 F4200
G1 X20.76 Y186.96 F4200
G1 X21.12 Y187.14 F4200
G1 X21.12 Y187.14 F4200
G1 X21.48 Y187.14 F4200
G1 X21.48 Y187.14 F4200
G1 X21.66 Y186.96 F4200
G1 X21.66 Y186.96 F4200
G1 X21.66 Y186.6 F4200
G1 X21.66 Y186.6 F4200
G1 X21.48 Y186.06 F4200
G1 X21.48 Y186.06 F4200
G1 X21.48 Y185.7 F4200
G1 X21.48 Y185.7 F4200
G1 X21.66 Y185.52 F4200
G1 X21.66 Y185.52 F4200
G1 X21.84 Y185.52 F4200
G1 X21.84 Y185.52 F4200
G1 X22.2 Y185.7 F4200
G1 X22.2 Y185.7 F4200
G1 X22.38 Y185.88 F4200
G1 X22.38 Y185.88 F4200
G1 X22.74 Y186.42 F4200
G1 X22.74 Y186.42 F4200
G1 X23.1 Y186.96 F4200
G1 X23.1 Y186.96 F4200
G1 X23.46 Y187.68 F4200
G0 Z4 F7200
G0 X24 Y189.3 F7200
G0 Z0.2 F7200
G1 X22.92 Y186.06 F4200
G1 X22.92 Y186.06 F4200
G1 X22.92 Y185.7 F4200
G1 X22.92 Y185.7 F4200
G1 X23.1 Y185.52 F4200
G1 X23.1 Y185.52 F4200
G1 X23.46 Y185.52 F4200
G1 X23.46 Y185.52 F4200
G1 X23.82 Y185.7 F4200
G1 X23.82 Y185.7 F4200
G1 X24 Y185.88 F4200
G1 X24 Y185.88 F4200
G1 X24.36 Y186.42 F4200
G0 Z4 F7200
G0 X22.92 Y187.86 F7200
G0 Z0.2 F7200
G1 X24.18 Y187.86 F4200
G0 Z4 F7200
G0 X24.36 Y186.42 F7200
G0 Z0.2 F7200
G1 X24.72 Y186.96 F4200
G1 X24.72 Y186.96 F4200
G1 X25.26 Y187.86 F4200
G1 X25.26 Y187.86 F4200
G1 X25.44 Y188.22 F4200
G1 X25.44 Y188.22 F4200
G1 X25.62 Y188.76 F4200
G1 X25.62 Y188.76 F4200
G1 X25.62 Y189.12 F4200
G1 X25.62 Y189.12 F4200
G1 X25.44 Y189.3 F4200
G1 X25.44 Y189.3 F4200
G1 X25.08 Y189.12 F4200
G1 X25.08 Y189.12 F4200
G1 X24.9 Y188.76 F4200
G1 X24.9 Y188.76 F4200
G1 X24.72 Y188.04 F4200
G1 X24.72 Y188.04 F4200
G1 X24.54 Y186.78 F4200
G1 X24.54 Y186.78 F4200
G1 X24.54 Y185.7 F4200
G1 X24.54 Y185.7 F4200
G1 X24.72 Y185.52 F4200
G1 X24.72 Y185.52 F4200
G1 X24.9 Y185.52 F4200
G1 X24.9 Y185.52 F4200
G1 X25.26 Y185.7 F4200
G1 X25.26 Y185.7 F4200
G1 X25.44 Y185.88 F4200
G1 X25.44 Y185.88 F4200
G1 X25.8 Y186.42 F4200
G0 Z4 F7200
G0 X25.98 Y185.88 F7200
G0 Z0.2 F7200
G1 X26.34 Y186.06 F4200
G1 X26.34 Y186.06 F4200
G1 X26.52 Y186.24 F4200
G1 X26.52 Y186.24 F4200
G1 X26.7 Y186.6 F4200
G1 X26.7 Y186.6 F4200
G1 X26.7 Y186.96 F4200
G1 X26.7 Y186.96 F4200
G1 X26.52 Y187.14 F4200
G1 X26.52 Y187.14 F4200
G1 X26.34 Y187.14 F4200
G1 X26.34 Y187.14 F4200
G1 X25.98 Y186.96 F4200
G1 X25.98 Y186.96 F4200
G1 X25.8 Y186.6 F4200
G1 X25.8 Y186.6 F4200
G1 X25.8 Y186.06 F4200
G1 X25.8 Y186.06 F4200
G1 X25.98 Y185.7 F4200
G1 X25.98 Y185.7 F4200
G1 X26.34 Y185.52 F4200
G1 X26.34 Y185.52 F4200
G1 X26.7 Y185.52 F4200
G1 X26.7 Y185.52 F4200
G1 X27.06 Y185.7 F4200
G1 X27.06 Y185.7 F4200
G1 X27.24 Y185.88 F4200
G1 X27.24 Y185.88 F4200
G1 X27.6 Y186.42 F4200
G0 Z4 F7200
G0 X32.1 Y186.6 F7200
G0 Z0.2 F7200
G1 X31.92 Y186.96 F4200
G1 X31.92 Y186.96 F4200
G1 X31.56 Y187.14 F4200
G1 X31.56 Y187.14 F4200
G1 X31.2 Y187.14 F4200
G1 X31.2 Y187.14 F4200
G1 X30.84 Y186.96 F4200
G1 X30.84 Y186.96 F4200
G1 X30.66 Y186.78 F4200
G1 X30.66 Y186.78 F4200
G1 X30.48 Y186.42 F4200
G1 X30.48 Y186.42 F4200
G1 X30.48 Y186.06 F4200
G1 X30.48 Y186.06 F4200
G1 X30.66 Y185.7 F4200
G1 X30.66 Y185.7 F4200
G1 X31.02 Y185.52 F4200
G1 X31.02 Y185.52 F4200
G1 X31.38 Y185.52 F4200
G1 X31.38 Y185.52 F4200
G1 X31.74 Y185.7 F4200
G1 X31.74 Y185.7 F4200
G1 X31.92 Y185.88 F4200
G0 Z4 F7200
G0 X32.28 Y187.14 F7200
G0 Z0.2 F7200
G1 X31.92 Y185.88 F4200
G1 X31.92 Y185.88 F4200
G1 X31.2 Y183.9 F4200
G1 X31.2 Y183.9 F4200
G1 X31.02 Y183.54 F4200
G1 X31.02 Y183.54 F4200
G1 X30.66 Y183.36 F4200
G1 X30.66 Y183.36 F4200
G1 X30.48 Y183.54 F4200
G1 X30.48 Y183.54 F4200
G1 X30.48 Y183.9 F4200
G1 X30.48 Y183.9 F4200
G1 X30.66 Y184.44 F4200
G1 X30.66 Y184.44 F4200
G1 X31.2 Y184.98 F4200
G1 X31.2 Y184.98 F4200
G1 X31.74 Y185.34 F4200
G1 X31.74 Y185.34 F4200
G1 X32.1 Y185.52 F4200
G1 X32.1 Y185.52 F4200
G1 X32.64 Y185.88 F4200
G1 X32.64 Y185.88 F4200
G1 X33.18 Y186.42 F4200
G1 X33.18 Y186.42 F4200
G1 X33.54 Y186.96 F4200
G1 X33.54 Y186.96 F4200
G1 X34.08 Y187.86 F4200
G1 X34.08 Y187.86 F4200
G1 X34.26 Y188.22 F4200
G1 X34.26 Y188.22 F4200
G1 X34.44 Y188.76 F4200
G1 X34.44 Y188.76 F4200
G1 X34.44 Y189.12 F4200
G1 X34.44 Y189.12 F4200
G1 X34.26 Y189.3 F4200
G1 X34.26 Y189.3 F4200
G1 X33.9 Y189.12 F4200
G1 X33.9 Y189.12 F4200
G1 X33.72 Y188.76 F4200
G1 X33.72 Y188.76 F4200
G1 X33.54 Y188.04 F4200
G1 X33.54 Y188.04 F4200
G1 X33.36 Y186.78 F4200
G1 X33.36 Y186.78 F4200
G1 X33.36 Y185.7 F4200
G1 X33.36 Y185.7 F4200
G1 X33.54 Y185.52 F4200
G1 X33.54 Y185.52 F4200
G1 X33.72 Y185.52 F4200
G1 X33.72 Y185.52 F4200
G1 X34.08 Y185.7 F4200
G1 X34.08 Y185.7 F4200
G1 X34.26 Y185.88 F4200
G1 X34.26 Y185.88 F4200
G1 X34.62 Y186.42 F4200
G0 Z4 F7200
G0 X35.7 Y187.14 F7200
G0 Z0.2 F7200
G1 X35.34 Y187.14 F4200
G1 X35.34 Y187.14 F4200
G1 X34.98 Y186.96 F4200
G1 X34.98 Y186.96 F4200
G1 X34.8 Y186.78 F4200
G1 X34.8 Y186.78 F4200
G1 X34.62 Y186.42 F4200
G1 X34.62 Y186.42 F4200
G1 X34.62 Y186.06 F4200
G1 X34.62 Y186.06 F4200
G1 X34.8 Y185.7 F4200
G1 X34.8 Y185.7 F4200
G1 X35.16 Y185.52 F4200
G1 X35.16 Y185.52 F4200
G1 X35.52 Y185.52 F4200
G1 X35.52 Y185.52 F4200
G1 X35.88 Y185.7 F4200
G1 X35.88 Y185.7 F4200
G1 X36.06 Y185.88 F4200
G1 X36.06 Y185.88 F4200
G1 X36.24 Y186.24 F4200
G1 X36.24 Y186.24 F4200
G1 X36.24 Y186.6 F4200
G1 X36.24 Y186.6 F4200
G1 X36.06 Y186.96 F4200
G1 X36.06 Y186.96 F4200
G1 X35.7 Y187.14 F4200
G1 X35.7 Y187.14 F4200
G1 X35.52 Y186.96 F4200
G1 X35.52 Y186.96 F4200
G1 X35.52 Y186.6 F4200
G1 X35.52 Y186.6 F4200
G1 X35.7 Y186.24 F4200
G1 X35.7 Y186.24 F4200
G1 X36.06 Y186.06 F4200
G1 X36.06 Y186.06 F4200
G1 X36.6 Y186.06 F4200
G1 X36.6 Y186.06 F4200
G1 X36.96 Y186.24 F4200
G1 X36.96 Y186.24 F4200
G1 X37.14 Y186.42 F4200
G0 Z4 F7200
G0 X37.68 Y187.14 F7200
G0 Z0.2 F7200
G1 X37.32 Y186.78 F4200
G1 X37.32 Y186.78 F4200
G1 X37.14 Y186.24 F4200
G1 X37.14 Y186.24 F4200
G1 X37.14 Y185.88 F4200
G1 X37.14 Y185.88 F4200
G1 X37.32 Y185.52 F4200
G1 X37.32 Y185.52 F4200
G1 X37.68 Y185.52 F4200
G1 X37.68 Y185.52 F4200
G1 X38.04 Y185.7 F4200
G1 X38.04 Y185.7 F4200
G1 X38.4 Y186.06 F4200
G0 Z4 F7200
G0 X38.76 Y187.14 F7200
G0 Z0.2 F7200
G1 X38.4 Y186.06 F4200
G1 X38.4 Y186.06 F4200
G1 X38.4 Y185.7 F4200
G1 X38.4 Y185.7 F4200
G1 X38.58 Y185.52 F4200
G1 X38.58 Y185.52 F4200
G1 X38.94 Y185.52 F4200
G1 X38.94 Y185.52 F4200
G1 X39.3 Y185.7 F4200
G1 X39.3 Y185.7 F4200
G1 X39.66 Y186.06 F4200
G1 X39.66 Y186.06 F4200
G1 X39.84 Y186.6 F4200
G1 X39.84 Y186.6 F4200
G1 X39.84 Y187.14 F4200
G1 X39.84 Y187.14 F4200
G1 X40.02 Y186.42 F4200
G1 X40.02 Y186.42 F4200
G1 X40.2 Y186.24 F4200
G1 X40.2 Y186.24 F4200
G1 X40.56 Y186.24 F4200
G1 X40.56 Y186.24 F4200
G1 X40.92 Y186.42 F4200
G0 Z4 F7200
G0 X44.88 Y187.14 F7200
G0 Z0.2 F7200
G1 X44.52 Y187.14 F4200
G1 X44.52 Y187.14 F4200
G1 X44.16 Y186.96 F4200
G1 X44.16 Y186.96 F4200
G1 X43.98 Y186.78 F4200
G1 X43.98 Y186.78 F4200
G1 X43.8 Y186.42 F4200
G1 X43.8 Y186.42 F4200
G1 X43.8 Y186.06 F4200
G1 X43.8 Y186.06 F4200
G1 X43.98 Y185.7 F4200
G1 X43.98 Y185.7 F4200
G1 X44.34 Y185.52 F4200
G1 X44.34 Y185.52 F4200
G1 X44.7 Y185.52 F4200
G1 X44.7 Y185.52 F4200
G1 X45.06 Y185.7 F4200
G1 X45.06 Y185.7 F4200
G1 X45.24 Y185.88 F4200
G1 X45.24 Y185.88 F4200
G1 X45.42 Y186.24 F4200
G1 X45.42 Y186.24 F4200
G1 X45.42 Y186.6 F4200
G1 X45.42 Y186.6 F4200
G1 X45.24 Y186.96 F4200
G1 X45.24 Y186.96 F4200
G1 X44.88 Y187.14 F4200
G1 X44.88 Y187.14 F4200
G1 X44.7 Y186.96 F4200
G1 X44.7 Y186.96 F4200
G1 X44.7 Y186.6 F4200
G1 X44.7 Y186.6 F4200
G1 X44.88 Y186.24 F4200
G1 X44.88 Y186.24 F4200
G1 X45.24 Y186.06 F4200
G1 X45.24 Y186.06 F4200
G1 X45.78 Y186.06 F4200
G1 X45.78 Y186.06 F4200
G1 X46.14 Y186.24 F4200
G1 X46.14 Y186.24 F4200
G1 X46.32 Y186.42 F4200
G1 X46.32 Y186.42 F4200
G1 X46.68 Y186.96 F4200
G1 X46.68 Y186.96 F4200
G1 X47.04 Y187.14 F4200
G1 X47.04 Y187.14 F4200
G1 X47.22 Y186.96 F4200
G1 X47.22 Y186.96 F4200
G1 X47.22 Y186.78 F4200
G1 X47.22 Y186.78 F4200
G1 X47.04 Y186.06 F4200
G1 X47.04 Y186.06 F4200
G1 X46.86 Y185.52 F4200
G0 Z4 F7200
G0 X47.04 Y186.06 F7200
G0 Z0.2 F7200
G1 X47.22 Y186.42 F4200
G1 X47.22 Y186.42 F4200
G1 X47.58 Y186.96 F4200
G1 X47.58 Y186.96 F4200
G1 X47.94 Y187.14 F4200
G1 X47.94 Y187.14 F4200
G1 X48.3 Y187.14 F4200
G1 X48.3 Y187.14 F4200
G1 X48.48 Y186.96 F4200
G1 X48.48 Y186.96 F4200
G1 X48.48 Y186.6 F4200
G1 X48.48 Y186.6 F4200
G1 X48.3 Y186.06 F4200
G1 X48.3 Y186.06 F4200
G1 X48.3 Y185.7 F4200
G1 X48.3 Y185.7 F4200
G1 X48.48 Y185.52 F4200
G1 X48.48 Y185.52 F4200
G1 X48.66 Y185.52 F4200
G1 X48.66 Y185.52 F4200
G1 X49.02 Y185.7 F4200
G1 X49.02 Y185.7 F4200
G1 X49.2 Y185.88 F4200
G1 X49.2 Y185.88 F4200
G1 X49.56 Y186.42 F4200
G0 Z4 F7200
G0 X52.44 Y186.42 F7200
G0 Z0.2 F7200
G1 X52.8 Y187.14 F4200
G1 X52.8 Y187.14 F4200
G1 X52.44 Y186.06 F4200
G1 X52.44 Y186.06 F4200
G1 X52.44 Y185.7 F4200
G1 X52.44 Y185.7 F4200
G1 X52.62 Y185.52 F4200
G1 X52.62 Y185.52 F4200
G1 X52.98 Y185.52 F4200
G1 X52.98 Y185.52 F4200
G1 X53.34 Y185.7 F4200
G1 X53.34 Y185.7 F4200
G1 X53.7 Y186.06 F4200
G1 X53.7 Y186.06 F4200
G1 X54.06 Y186.6 F4200
G0 Z4 F7200
G0 X54.24 Y187.14 F7200
G0 Z0.2 F7200
G1 X53.16 Y183.9 F4200
G1 X53.16 Y183.9 F4200
G1 X52.98 Y183.54 F4200
G1 X52.98 Y183.54 F4200
G1 X52.62 Y183.36 F4200
G1 X52.62 Y183.36 F4200
G1 X52.44 Y183.54 F4200
G1 X52.44 Y183.54 F4200
G1 X52.44 Y183.9 F4200
G1 X52.44 Y183.9 F4200
G1 X52.62 Y184.44 F4200
G1 X52.62 Y184.44 F4200
G1 X53.16 Y184.98 F4200
G1 X53.16 Y184.98 F4200
G1 X53.7 Y185.34 F4200
G1 X53.7 Y185.34 F4200
G1 X54.06 Y185.52 F4200
G1 X54.06 Y185.52 F4200
G1 X54.6 Y185.88 F4200
G1 X54.6 Y185.88 F4200
G1 X55.14 Y186.42 F4200
G0 Z4 F7200
G0 X56.22 Y187.14 F7200
G0 Z0.2 F7200
G1 X55.86 Y187.14 F4200
G1 X55.86 Y187.14 F4200
G1 X55.5 Y186.96 F4200
G1 X55.5 Y186.96 F4200
G1 X55.32 Y186.78 F4200
G1 X55.32 Y186.78 F4200
G1 X55.14 Y186.42 F4200
G1 X55.14 Y186.42 F4200
G1 X55.14 Y186.06 F4200
G1 X55.14 Y186.06 F4200
G1 X55.32 Y185.7 F4200
G1 X55.32 Y185.7 F4200
G1 X55.68 Y185.52 F4200
G1 X55.68 Y185.52 F4200
G1 X56.04 Y185.52 F4200
G1 X56.04 Y185.52 F4200
G1 X56.4 Y185.7 F4200
G1 X56.4 Y185.7 F4200
G1 X56.58 Y185.88 F4200
G1 X56.58 Y185.88 F4200
G1 X56.76 Y186.24 F4200
G1 X56.76 Y186.24 F4200
G1 X56.76 Y186.6 F4200
G1 X56.76 Y186.6 F4200
G1 X56.58 Y186.96 F4200
G1 X56.58 Y186.96 F4200
G1 X56.22 Y187.14 F4200
G1 X56.22 Y187.14 F4200
G1 X56.04 Y186.96 F4200
G1 X56.04 Y186.96 F4200
G1 X56.04 Y186.6 F4200
G1 X56.04 Y186.6 F4200
G1 X56.22 Y186.24 F4200
G1 X56.22 Y186.24 F4200
G1 X56.58 Y186.06 F4200
G1 X56.58 Y186.06 F4200
G1 X57.12 Y186.06 F4200
G1 X57.12 Y186.06 F4200
G1 X57.48 Y186.24 F4200
G1 X57.48 Y186.24 F4200
G1 X57.66 Y186.42 F4200
G1 X57.66 Y186.42 F4200
G1 X58.02 Y187.14 F4200
G1 X58.02 Y187.14 F4200
G1 X57.66 Y186.06 F4200
G1 X57.66 Y186.06 F4200
G1 X57.66 Y185.7 F4200
G1 X57.66 Y185.7 F4200
G1 X57.84 Y185.52 F4200
G1 X57.84 Y185.52 F4200
G1 X58.2 Y185.52 F4200
G1 X58.2 Y185.52 F4200
G1 X58.56 Y185.7 F4200
G1 X58.56 Y185.7 F4200
G1 X58.92 Y186.06 F4200
G1 X58.92 Y186.06 F4200
G1 X59.28 Y186.6 F4200
G0 Z4 F7200
G0 X59.46 Y187.14 F7200
G0 Z0.2 F7200
G1 X59.1 Y186.06 F4200
G1 X59.1 Y186.06 F4200
G1 X59.1 Y185.7 F4200
G1 X59.1 Y185.7 F4200
G1 X59.28 Y185.52 F4200
G1 X59.28 Y185.52 F4200
G1 X59.46 Y185.52 F4200
G1 X59.46 Y185.52 F4200
G1 X59.82 Y185.7 F4200
G1 X59.82 Y185.7 F4200
G1 X60 Y185.88 F4200
G1 X60 Y185.88 F4200
G1 X60.36 Y186.42 F4200
G1 X60.36 Y186.42 F4200
G1 X60.72 Y186.96 F4200
G1 X60.72 Y186.96 F4200
G1 X60.9 Y187.32 F4200
G1 X60.9 Y187.32 F4200
G1 X60.9 Y186.96 F4200
G1 X60.9 Y186.96 F4200
G1 X61.44 Y186.96 F4200
G1 X61.44 Y186.96 F4200
G1 X61.62 Y186.78 F4200
G1 X61.62 Y186.78 F4200
G1 X61.62 Y186.42 F4200
G1 X61.62 Y186.42 F4200
G1 X61.44 Y185.88 F4200
G1 X61.44 Y185.88 F4200
G1 X61.44 Y185.7 F4200
G1 X61.44 Y185.7 F4200
G1 X61.62 Y185.52 F4200
G1 X61.62 Y185.52 F4200
G1 X61.8 Y185.52 F4200
G1 X61.8 Y185.52 F4200
G1 X62.16 Y185.7 F4200
G1 X62.16 Y185.7 F4200
G1 X62.34 Y185.88 F4200
G1 X62.34 Y185.88 F4200
G1 X62.7 Y186.42 F4200
G0 Z4 F7200
G0 X66.84 Y186.78 F7200
G0 Z0.2 F7200
G1 X66.84 Y186.96 F4200
G1 X66.84 Y186.96 F4200
G1 X66.66 Y187.14 F4200
G1 X66.66 Y187.14 F4200
G1 X66.3 Y187.14 F4200
G1 X66.3 Y187.14 F4200
G1 X65.94 Y186.96 F4200
G1 X65.94 Y186.96 F4200
G1 X65.76 Y186.78 F4200
G1 X65.76 Y186.78 F4200
G1 X65.58 Y186.42 F4200
G1 X65.58 Y186.42 F4200
G1 X65.58 Y186.06 F4200
G1 X65.58 Y186.06 F4200
G1 X65.76 Y185.7 F4200
G1 X65.76 Y185.7 F4200
G1 X66.12 Y185.52 F4200
G1 X66.12 Y185.52 F4200
G1 X66.66 Y185.52 F4200
G1 X66.66 Y185.52 F4200
G1 X67.2 Y185.88 F4200
G1 X67.2 Y185.88 F4200
G1 X67.56 Y186.42 F4200
G1 X67.56 Y186.42 F4200
G1 X67.92 Y186.96 F4200
G1 X67.92 Y186.96 F4200
G1 X68.46 Y187.86 F4200
G1 X68.46 Y187.86 F4200
G1 X68.64 Y188.22 F4200
G1 X68.64 Y188.22 F4200
G1 X68.82 Y188.76 F4200
G1 X68.82 Y188.76 F4200
G1 X68.82 Y189.12 F4200
G1 X68.82 Y189.12 F4200
G1 X68.64 Y189.3 F4200
G1 X68.64 Y189.3 F4200
G1 X68.28 Y189.12 F4200
G1 X68.28 Y189.12 F4200
G1 X68.1 Y188.76 F4200
G1 X68.1 Y188.76 F4200
G1 X67.92 Y188.04 F4200
G1 X67.92 Y188.04 F4200
G1 X67.74 Y186.96 F4200
G1 X67.74 Y186.96 F4200
G1 X67.56 Y185.52 F4200
G1 X67.56 Y185.52 F4200
G1 X67.74 Y186.06 F4200
G1 X67.74 Y186.06 F4200
G1 X67.92 Y186.42 F4200
G1 X67.92 Y186.42 F4200
G1 X68.28 Y186.96 F4200
G1 X68.28 Y186.96 F4200
G1 X68.64 Y187.14 F4200
G1 X68.64 Y187.14 F4200
G1 X69 Y187.14 F4200
G1 X69 Y187.14 F4200
G1 X69.18 Y186.96 F4200
G1 X69.18 Y186.96 F4200
G1 X69.18 Y186.6 F4200
G1 X69.18 Y186.6 F4200
G1 X69 Y186.06 F4200
G1 X69 Y186.06 F4200
G1 X69 Y185.7 F4200
G1 X69 Y185.7 F4200
G1 X69.18 Y185.52 F4200
G1 X69.18 Y185.52 F4200
G1 X69.36 Y185.52 F4200
G1 X69.36 Y185.52 F4200
G1 X69.72 Y185.7 F4200
G1 X69.72 Y185.7 F4200
G1 X69.9 Y185.88 F4200
G1 X69.9 Y185.88 F4200
G1 X70.26 Y186.42 F4200
G0 Z4 F7200
G0 X70.44 Y185.88 F7200
G0 Z0.2 F7200
G1 X70.8 Y186.06 F4200
G1 X70.8 Y186.06 F4200
G1 X70.98 Y186.24 F4200
G1 X70.98 Y186.24 F4200
G1 X71.16 Y186.6 F4200
G1 X71.16 Y186.6 F4200
G1 X71.16 Y186.96 F4200
G1 X71.16 Y186.96 F4200
G1 X70.98 Y187.14 F4200
G1 X70.98 Y187.14 F4200
G1 X70.8 Y187.14 F4200
G1 X70.8 Y187.14 F4200
G1 X70.44 Y186.96 F4200
G1 X70.44 Y186.96 F4200
G1 X70.26 Y186.6 F4200
G1 X70.26 Y186.6 F4200
G1 X70.26 Y186.06 F4200
G1 X70.26 Y186.06 F4200
G1 X70.44 Y185.7 F4200
G1 X70.44 Y185.7 F4200
G1 X70.8 Y185.52 F4200
G1 X70.8 Y185.52 F4200
G1 X71.16 Y185.52 F4200
G1 X71.16 Y185.52 F4200
G1 X71.52 Y185.7 F4200
G1 X71.52 Y185.7 F4200
G1 X71.7 Y185.88 F4200
G1 X71.7 Y185.88 F4200
G1 X72.06 Y186.42 F4200
G0 Z4 F7200
G0 X72.24 Y185.88 F7200
G0 Z0.2 F7200
G1 X72.6 Y186.06 F4200
G1 X72.6 Y186.06 F4200
G1 X72.78 Y186.24 F4200
G1 X72.78 Y186.24 F4200
G1 X72.96 Y186.6 F4200
G1 X72.96 Y186.6 F4200
G1 X72.96 Y186.96 F4200
G1 X72.96 Y186.96 F4200
G1 X72.78 Y187.14 F4200
G1 X72.78 Y187.14 F4200
G1 X72.6 Y187.14 F4200
G1 X72.6 Y187.14 F4200
G1 X72.24 Y186.96 F4200
G1 X72.24 Y186.96 F4200
G1 X72.06 Y186.6 F4200
G1 X72.06 Y186.6 F4200
G1 X72.06 Y186.06 F4200
G1 X72.06 Y186.06 F4200
G1 X72.24 Y185.7 F4200
G1 X72.24 Y185.7 F4200
G1 X72.6 Y185.52 F4200
G1 X72.6 Y185.52 F4200
G1 X72.96 Y185.52 F4200
G1 X72.96 Y185.52 F4200
G1 X73.32 Y185.7 F4200
G1 X73.32 Y185.7 F4200
G1 X73.5 Y185.88 F4200
G1 X73.5 Y185.88 F4200
G1 X73.86 Y186.42 F4200
G1 X73.86 Y186.42 F4200
G1 X74.22 Y186.96 F4200
G1 X74.22 Y186.96 F4200
G1 X74.76 Y187.86 F4200
G1 X74.76 Y187.86 F4200
G1 X74.94 Y188.22 F4200
G1 X74.94 Y188.22 F4200
G1 X75.12 Y188.76 F4200
G1 X75.12 Y188.76 F4200
G1 X75.12 Y189.12 F4200
G1 X75.12 Y189.12 F4200
G1 X74.94 Y189.3 F4200
G1 X74.94 Y189.3 F4200
G1 X74.58 Y189.12 F4200
G1 X74.58 Y189.12 F4200
G1 X74.4 Y188.76 F4200
G1 X74.4 Y188.76 F4200
G1 X74.22 Y188.04 F4200
G1 X74.22 Y188.04 F4200
G1 X74.04 Y186.96 F4200
G1 X74.04 Y186.96 F4200
G1 X73.86 Y185.52 F4200
G1 X73.86 Y185.52 F4200
G1 X74.04 Y186.06 F4200
G1 X74.04 Y186.06 F4200
G1 X74.22 Y186.42 F4200
G1 X74.22 Y186.42 F4200
G1 X74.58 Y186.96 F4200
G1 X74.58 Y186.96 F4200
G1 X74.94 Y187.14 F4200
G1 X74.94 Y187.14 F4200
G1 X75.3 Y187.14 F4200
G1 X75.3 Y187.14 F4200
G1 X75.48 Y186.96 F4200
G1 X75.48 Y186.96 F4200
G1 X75.48 Y186.6 F4200
G1 X75.48 Y186.6 F4200
G1 X75.12 Y186.42 F4200
G1 X75.12 Y186.42 F4200
G1 X74.58 Y186.42 F4200
G1 X74.58 Y186.42 F4200
G1 X74.94 Y186.24 F4200
G1 X74.94 Y186.24 F4200
G1 X75.12 Y185.7 F4200
G1 X75.12 Y185.7 F4200
G1 X75.3 Y185.52 F4200
G1 X75.3 Y185.52 F4200
G1 X75.48 Y185.52 F4200
G1 X75.48 Y185.52 F4200
G1 X75.84 Y185.7 F4200
G1 X75.84 Y185.7 F4200
G1 X76.02 Y185.88 F4200
G1 X76.02 Y185.88 F4200
G1 X76.38 Y186.42 F4200
G1 X76.38 Y186.42 F4200
G1 X76.74 Y186.96 F4200
G1 X76.74 Y186.96 F4200
G1 X76.92 Y187.32 F4200
G1 X76.92 Y187.32 F4200
G1 X76.92 Y186.96 F4200
G1 X76.92 Y186.96 F4200
G1 X77.28 Y186.42 F4200
G1 X77.28 Y186.42 F4200
G1 X77.46 Y186.06 F4200
G1 X77.46 Y186.06 F4200
G1 X77.46 Y185.7 F4200
G1 X77.46 Y185.7 F4200
G1 X77.1 Y185.52 F4200
G0 Z4 F7200
G0 X76.38 Y185.7 F7200
G0 Z0.2 F7200
G1 X76.74 Y185.52 F4200
G1 X76.74 Y185.52 F4200
G1 X77.46 Y185.52 F4200
G1 X77.46 Y185.52 F4200
G1 X77.82 Y185.7 F4200
G1 X77.82 Y185.7 F4200
G1 X78 Y185.88 F4200
G1 X78 Y185.88 F4200
G1 X78.36 Y186.42 F4200
G0 Z4 F7200
G0 X78.72 Y186.24 F7200
G0 Z0.2 F7200
G1 X78.54 Y186.06 F4200
G1 X78.54 Y186.06 F4200
G1 X78.36 Y186.24 F4200
G1 X78.36 Y186.24 F4200
G1 X78.54 Y186.42 F4200
G1 X78.54 Y186.42 F4200
G1 X78.72 Y186.24 F4200
G1 X78.72 Y186.24 F4200
G1 X78.72 Y185.88 F4200
G1 X78.72 Y185.88 F4200
G1 X78.36 Y185.52 F4200
G0 Z4 F7200
G0 X83.22 Y186.6 F7200
G0 Z0.2 F7200
G1 X83.04 Y186.96 F4200
G1 X83.04 Y186.96 F4200
G1 X82.68 Y187.14 F4200
G1 X82.68 Y187.14 F4200
G1 X82.32 Y187.14 F4200
G1 X82.32 Y187.14 F4200
G1 X81.96 Y186.96 F4200
G1 X81.96 Y186.96 F4200
G1 X81.78 Y186.78 F4200
G1 X81.78 Y186.78 F4200
G1 X81.6 Y186.42 F4200
G1 X81.6 Y186.42 F4200
G1 X81.6 Y186.06 F4200
G1 X81.6 Y186.06 F4200
G1 X81.78 Y185.7 F4200
G1 X81.78 Y185.7 F4200
G1 X82.14 Y185.52 F4200
G1 X82.14 Y185.52 F4200
G1 X82.5 Y185.52 F4200
G1 X82.5 Y185.52 F4200
G1 X82.86 Y185.7 F4200
G1 X82.86 Y185.7 F4200
G1 X83.04 Y186.06 F4200
G1 X83.04 Y186.06 F4200
G1 X83.4 Y187.14 F4200
G1 X83.4 Y187.14 F4200
G1 X83.22 Y186.24 F4200
G1 X83.22 Y186.24 F4200
G1 X83.22 Y185.7 F4200
G1 X83.22 Y185.7 F4200
G1 X83.4 Y185.52 F4200
G1 X83.4 Y185.52 F4200
G1 X83.58 Y185.52 F4200
G1 X83.58 Y185.52 F4200
G1 X83.94 Y185.7 F4200
G1 X83.94 Y185.7 F4200
G1 X84.12 Y185.88 F4200
G1 X84.12 Y185.88 F4200
G1 X84.48 Y186.42 F4200
G1 X84.48 Y186.42 F4200
G1 X84.84 Y186.96 F4200
G1 X84.84 Y186.96 F4200
G1 X85.2 Y187.14 F4200
G1 X85.2 Y187.14 F4200
G1 X85.38 Y186.96 F4200
G1 X85.38 Y186.96 F4200
G1 X85.38 Y186.78 F4200
G1 X85.38 Y186.78 F4200
G1 X85.2 Y186.06 F4200
G1 X85.2 Y186.06 F4200
G1 X85.02 Y185.52 F4200
G0 Z4 F7200
G0 X85.2 Y186.06 F7200
G0 Z0.2 F7200
G1 X85.38 Y186.42 F4200
G1 X85.38 Y186.42 F4200
G1 X85.74 Y186.96 F4200
G1 X85.74 Y186.96 F4200
G1 X86.1 Y187.14 F4200
G1 X86.1 Y187.14 F4200
G1 X86.46 Y187.14 F4200
G1 X86.46 Y187.14 F4200
G1 X86.64 Y186.96 F4200
G1 X86.64 Y186.96 F4200
G1 X86.64 Y186.6 F4200
G1 X86.64 Y186.6 F4200
G1 X86.46 Y186.06 F4200
G1 X86.46 Y186.06 F4200
G1 X86.46 Y185.7 F4200
G1 X86.46 Y185.7 F4200
G1 X86.64 Y185.52 F4200
G1 X86.64 Y185.52 F4200
G1 X86.82 Y185.52 F4200
G1 X86.82 Y185.52 F4200
G1 X87.18 Y185.7 F4200
G1 X87.18 Y185.7 F4200
G1 X87.36 Y185.88 F4200
G1 X87.36 Y185.88 F4200
G1 X87.72 Y186.42 F4200
G0 Z4 F7200
G0 X89.34 Y186.6 F7200
G0 Z0.2 F7200
G1 X89.16 Y186.96 F4200
G1 X89.16 Y186.96 F4200
G1 X88.8 Y187.14 F4200
G1 X88.8 Y187.14 F4200
G1 X88.44 Y187.14 F4200
G1 X88.44 Y187.14 F4200
G1 X88.08 Y186.96 F4200
G1 X88.08 Y186.96 F4200
G1 X87.9 Y186.78 F4200
G1 X87.9 Y186.78 F4200
G1 X87.72 Y186.42 F4200
G1 X87.72 Y186.42 F4200
G1 X87.72 Y186.06 F4200
G1 X87.72 Y186.06 F4200
G1 X87.9 Y185.7 F4200
G1 X87.9 Y185.7 F4200
G1 X88.26 Y185.52 F4200
G1 X88.26 Y185.52 F4200
G1 X88.62 Y185.52 F4200
G1 X88.62 Y185.52 F4200
G1 X88.98 Y185.7 F4200
G1 X88.98 Y185.7 F4200
G1 X89.16 Y186.06 F4200
G1 X89.16 Y186.06 F4200
G1 X90.24 Y189.3 F4200
G0 Z4 F7200
G0 X89.52 Y187.14 F7200
G0 Z0.2 F7200
G1 X89.34 Y186.24 F4200
G1 X89.34 Y186.24 F4200
G1 X89.34 Y185.7 F4200
G1 X89.34 Y185.7 F4200
G1 X89.52 Y185.52 F4200
G1 X89.52 Y185.52 F4200
G1 X89.7 Y185.52 F4200
G1 X89.7 Y185.52 F4200
G1 X90.06 Y185.7 F4200
G1 X90.06 Y185.7 F4200
G1 X90.24 Y185.88 F4200
G1 X90.24 Y185.88 F4200
G1 X90.6 Y186.42 F4200
G0 Z4 F7200
G0 X95.82 Y186.42 F7200
G0 Z0.2 F7200
G1 X95.46 Y186.78 F4200
G1 X95.46 Y186.78 F4200
G1 X95.1 Y187.32 F4200
G1 X95.1 Y187.32 F4200
G1 X94.92 Y187.68 F4200
G1 X94.92 Y187.68 F4200
G1 X94.74 Y188.22 F4200
G1 X94.74 Y188.22 F4200
G1 X94.74 Y188.76 F4200
G1 X94.74 Y188.76 F4200
G1 X94.92 Y189.12 F4200
G1 X94.92 Y189.12 F4200
G1 X95.1 Y189.3 F4200
G1 X95.1 Y189.3 F4200
G1 X95.46 Y189.3 F4200
G1 X95.46 Y189.3 F4200
G1 X95.64 Y189.12 F4200
G1 X95.64 Y189.12 F4200
G1 X95.82 Y188.76 F4200
G1 X95.82 Y188.76 F4200
G1 X95.82 Y188.22 F4200
G1 X95.82 Y188.22 F4200
G1 X95.64 Y187.32 F4200
G1 X95.64 Y187.32 F4200
G1 X95.28 Y186.42 F4200
G1 X95.28 Y186.42 F4200
G1 X95.1 Y186.06 F4200
G1 X95.1 Y186.06 F4200
G1 X94.74 Y185.7 F4200
G1 X94.74 Y185.7 F4200
G1 X94.38 Y185.52 F4200
G1 X94.38 Y185.52 F4200
G1 X94.02 Y185.52 F4200
G1 X94.02 Y185.52 F4200
G1 X93.66 Y185.7 F4200
G1 X93.66 Y185.7 F4200
G1 X93.48 Y186.06 F4200
G1 X93.48 Y186.06 F4200
G1 X93.48 Y186.42 F4200
G1 X93.48 Y186.42 F4200
G1 X93.66 Y186.6 F4200
G1 X93.66 Y186.6 F4200
G1 X94.02 Y186.6 F4200
G1 X94.02 Y186.6 F4200
G1 X94.38 Y186.42 F4200
G0 Z4 F7200
G0 X99.96 Y186.78 F7200
G0 Z0.2 F7200
G1 X99.96 Y186.96 F4200
G1 X99.96 Y186.96 F4200
G1 X99.78 Y187.14 F4200
G1 X99.78 Y187.14 F4200
G1 X99.42 Y187.14 F4200
